!!!!SEGMENT: pl-cz--iii-31--006_bolehovsky-josef--litaniae-regina-angelorum.krn
!!!cenid: 17xx:833
!!!COM: Bolehovský, Josef
!!!COM-rismid: pe30000404
!!!CDT: 1743-1811
!!!CNT: Czech
!!!OTL: Litaniae – Regina angelorum
!!!PDT:
!!!AGN: Sacred; Mass
!!!SMS-siglum: PL-CZ
!!!SMS-shelfmark: III-31
!!!SMS-shelfwork: 001-006 M
!!!SMS-variant:
!!!SMS-altvar:
!!!NIFC-rismid: 300237604
!!!URL-scan: http://repozytorium.nifc.pl/skany/pl-cz-nut--iii-31
!!!ONB-nifc: UWAGA: części Litanii: Kyrie, Sancta Maria, Virgo prudentissima, Rosa mystica, Salus infirmorum, Regina angelorum, Agnus Dei
**kern	**fba	**dynam	**kern	**dynam	**kern	**dynam	**kern	**dynam	**kern	**text	**dynam	**kern	**text	**dynam	**kern	**text	**dynam	**kern	**text	**dynam	**kern	**kern
*part10	*	*part10	*part9	*part9	*part8	*part8	*part7	*part7	*part6	*part6	*part6	*part5	*part5	*part5	*part4	*part4	*part4	*part3	*part3	*part3	*part2	*part1
*	*	*	*group3	*	*group3	*	*group3	*	*group2	*	*	*group2	*	*	*group2	*	*	*group2	*	*	*group1	*group1
*staff10	*	*	*staff9	*	*staff8	*	*staff7	*	*staff6	*staff6	*	*staff5	*staff5	*	*staff4	*staff4	*	*staff3	*staff3	*	*staff2	*staff1
*I"Organo	*	*	*I"Violino 2do	*	*I"Violino Primo	*	*I"Violino Principali	*	*I"Baſso.	*	*	*I"Tenore	*	*	*I"Alto.	*	*	*I"Canto.	*	*	*I"Clarino Secundo in D#	*I"Clarino Primo in D#
*I'org	*	*	*I'vl 2	*	*I'vl 1	*	*I'vl princ	*	*I'B	*	*	*I'T	*	*	*I'A	*	*	*I'S	*	*	*I'Clno 2	*I'Clno 1
*clefF4	*	*	*clefG2	*	*clefG2	*	*clefG2	*	*clefF4	*	*	*clefC4	*	*	*clefC3	*	*	*clefC1	*	*	*clefG2	*clefG2
*	*	*	*	*	*	*	*	*	*	*	*	*	*	*	*	*	*	*	*	*	*ITrd-1c-2	*ITrd-1c-2
*k[f#c#]	*	*	*k[f#c#]	*	*k[f#c#]	*	*k[f#c#]	*	*k[f#c#]	*	*	*k[f#c#]	*	*	*k[f#c#]	*	*	*k[f#c#]	*	*	*k[f#c#]	*k[f#c#]
*D:	*	*	*D:	*	*D:	*	*D:	*	*D:	*	*	*D:	*	*	*D:	*	*	*D:	*	*	*	*
*M4/4	*	*	*M4/4	*	*M4/4	*	*M4/4	*	*M4/4	*	*	*M4/4	*	*	*M4/4	*	*	*M4/4	*	*	*M4/4	*M4/4
*met(c)	*	*	*met(c)	*	*met(c)	*	*met(c)	*	*met(c)	*	*	*met(c)	*	*	*met(c)	*	*	*met(c)	*	*	*met(c)	*met(c)
=1	=1	=1	=1	=1	=1	=1	=1	=1	=1	=1	=1	=1	=1	=1	=1	=1	=1	=1	=1	=1	=1	=1
!LO:TX:b:t=Regina	!	!	!	!	!	!	!LO:TX:b:t=Regina	!	!LO:TX:a:t=P:problem:kolejność znaków C# F#	!	!	!LO:TX:t=P:problem:kolejność znaków c# F#	!	!	!	!	!	!LO:TX:a:t=P:problem:kolejność znaków c# f#	!	!	!	!
!LO:TX:a:t=T&colon;	!	!	!LO:TX:b:t=Regina	!	!LO:TX:a:t=allo Mod&colon;	!	!	!	!	!	!	!	!	!	!	!	!	!	!	!	!LO:TX:a:t=allo	!
!LO:TX:a:t=allo Mod&colon;	!	!	!LO:TX:a:t=allo. moder.	!	!LO:TX:b:t=Regi.	!	!LO:TX:a:t=Allo Mod&colon;	!	!LO:TX:a:t=atto.	!	!	!LO:TX:a:t=allo	!	!	!LO:TX:a:t=allo molto	!	!	!LO:TX:a:t=allo molto	!	!	!LO:TX:b:t=Regina	!LO:TX:b:t=Regina
4d\	.	.	4f#/	.	4dd\	.	8.ddd\L	.	4d\	Re-	.	4A\	Re-	.	4f#\	Re-	.	4dd\	Re-	.	4dd\	4ff#\
.	.	.	.	.	.	.	16aa\Jk	.	.	.	.	.	.	.	.	.	.	.	.	.	.	.
4A\	.	.	4e/	.	4cc#\	.	16aa\LL	.	4A\	-gi-	.	4A\	-gi-	.	4e\	-gi-	.	4cc#\	-gi-	.	4a\	4ee\
.	.	.	.	.	.	.	16gg\	.	.	.	.	.	.	.	.	.	.	.	.	.	.	.
.	.	.	.	.	.	.	16ff#\	.	.	.	.	.	.	.	.	.	.	.	.	.	.	.
.	.	.	.	.	.	.	16ee\JJ	.	.	.	.	.	.	.	.	.	.	.	.	.	.	.
4D\	.	.	4f#/	.	4dd\	.	16dd\LL	.	4D\	-na	.	4A\	-na	.	4f#\	-na	.	4dd\	-na	.	4f#/	4dd\
.	.	.	.	.	.	.	32ee\L	.	.	.	.	.	.	.	.	.	.	.	.	.	.	.
.	.	.	.	.	.	.	32ff#\	.	.	.	.	.	.	.	.	.	.	.	.	.	.	.
.	.	.	.	.	.	.	32gg\	.	.	.	.	.	.	.	.	.	.	.	.	.	.	.
.	.	.	.	.	.	.	32aa\	.	.	.	.	.	.	.	.	.	.	.	.	.	.	.
.	.	.	.	.	.	.	32bb\	.	.	.	.	.	.	.	.	.	.	.	.	.	.	.
.	.	.	.	.	.	.	32ccc#\JJJ	.	.	.	.	.	.	.	.	.	.	.	.	.	.	.
4r	.	.	8r	.	8r	.	8ddd\L	.	4r	.	.	4r	.	.	4r	.	.	4r	.	.	4r	4r
.	.	.	8f#/	.	8f#/	.	8aa\J	.	.	.	.	.	.	.	.	.	.	.	.	.	.	.
=2	=2	=2	=2	=2	=2	=2	=2	=2	=2	=2	=2	=2	=2	=2	=2	=2	=2	=2	=2	=2	=2	=2
*	*	*	*	*	*	*	*Xtuplet	*	*	*	*	*	*	*	*	*	*	*	*	*	*	*
!	!	!	!	!	!	!	!	!	!	!	!	!LO:TX:a:t=1	!	!	!LO:TX:a:t=1	!	!	!LO:TX:a:t=1	!	!	!	!
1r	.	.	8g/L|	.	8g/L|	.	24bb\LL	.	1r	.	.	1r	.	.	1r	.	.	1r	.	.	1r	1r
.	.	.	.	.	.	.	24dd\	.	.	.	.	.	.	.	.	.	.	.	.	.	.	.
.	.	.	.	.	.	.	24dd\JJ	.	.	.	.	.	.	.	.	.	.	.	.	.	.	.
.	.	.	8f#/|	.	8f#/|	.	24aa\LL	.	.	.	.	.	.	.	.	.	.	.	.	.	.	.
.	.	.	.	.	.	.	24dd\	.	.	.	.	.	.	.	.	.	.	.	.	.	.	.
.	.	.	.	.	.	.	24dd\JJ	.	.	.	.	.	.	.	.	.	.	.	.	.	.	.
.	.	.	8g/|	.	8g/|	.	24bb\LL	.	.	.	.	.	.	.	.	.	.	.	.	.	.	.
.	.	.	.	.	.	.	24dd\	.	.	.	.	.	.	.	.	.	.	.	.	.	.	.
.	.	.	.	.	.	.	24dd\JJ	.	.	.	.	.	.	.	.	.	.	.	.	.	.	.
.	.	.	8f#/J|	.	8f#/J|	.	24aa\LL	.	.	.	.	.	.	.	.	.	.	.	.	.	.	.
.	.	.	.	.	.	.	24dd\	.	.	.	.	.	.	.	.	.	.	.	.	.	.	.
.	.	.	.	.	.	.	24dd\JJ	.	.	.	.	.	.	.	.	.	.	.	.	.	.	.
!	!	!	!	!	!	!	!LO:LB:g=original	!	!	!	!	!	!	!	!	!	!	!	!	!	!	!
.	.	.	8g/L	.	8g/L	.	16bb\LL	.	.	.	.	.	.	.	.	.	.	.	.	.	.	.
.	.	.	.	.	.	.	16ddd\	.	.	.	.	.	.	.	.	.	.	.	.	.	.	.
.	.	.	8f#/	.	8f#/	.	16aa\	.	.	.	.	.	.	.	.	.	.	.	.	.	.	.
.	.	.	.	.	.	.	16ddd\JJ	.	.	.	.	.	.	.	.	.	.	.	.	.	.	.
.	.	.	8e/	.	8e/	.	4gg\	.	.	.	.	.	.	.	.	.	.	.	.	.	.	.
!	!	!	!LO:TX:a:t=a	!	!	!	!	!	!	!	!	!	!	!	!	!	!	!	!	!	!	!
.	.	.	8A/J	.	8A/J	.	.	.	.	.	.	.	.	.	.	.	.	.	.	.	.	.
=3	=3	=3	=3	=3	=3	=3	=3	=3	=3	=3	=3	=3	=3	=3	=3	=3	=3	=3	=3	=3	=3	=3
*	*	*	*	*	*	*	*	*	*	*ij	*	*	*ij	*	*	*ij	*	*	*ij	*	*	*
4d\	.	.	4f#/	.	4dd\	.	8ff#\L	.	4d\	Re-	.	4A\	Re-	.	4f#\	Re-	.	4dd\	Re-	.	4dd\	4ff#\
.	.	.	.	.	.	.	8dd\J	.	.	.	.	.	.	.	.	.	.	.	.	.	.	.
4A\	.	.	4e/	.	4cc#\	.	4cc#\	.	4A\	-gi-	.	4A\	-gi-	.	4e\	-gi-	.	4cc#\	-gi-	.	4a/	4ee\
!	!	!	!	!	!	!	!LO:TX:t=P:problem:mixed beam	!	!	!	!	!	!	!	!	!	!	!	!	!	!	!
4D\	.	.	4f#/	.	4dd\	.	32dd\LLL	.	4D\	-na	.	4A\	-na	.	4f#\	-na	.	4dd\	-na	.	4f#/	4dd\
*	*	*	*	*	*	*	*	*	*	*Xij	*	*	*Xij	*	*	*Xij	*	*	*Xij	*	*	*
.	.	.	.	.	.	.	32d/	.	.	.	.	.	.	.	.	.	.	.	.	.	.	.
.	.	.	.	.	.	.	32e/	.	.	.	.	.	.	.	.	.	.	.	.	.	.	.
.	.	.	.	.	.	.	32f#/	.	.	.	.	.	.	.	.	.	.	.	.	.	.	.
.	.	.	.	.	.	.	32g/	.	.	.	.	.	.	.	.	.	.	.	.	.	.	.
.	.	.	.	.	.	.	32a/	.	.	.	.	.	.	.	.	.	.	.	.	.	.	.
.	.	.	.	.	.	.	32b/	.	.	.	.	.	.	.	.	.	.	.	.	.	.	.
.	.	.	.	.	.	.	32cc#/JJJ	.	.	.	.	.	.	.	.	.	.	.	.	.	.	.
4r	.	.	8r	.	8r	.	8dd\L	.	4r	.	.	4r	.	.	4r	.	.	4r	.	.	4r	4r
.	.	.	8f#/	.	8f#/	.	8a\J	.	.	.	.	.	.	.	.	.	.	.	.	.	.	.
=4	=4	=4	=4	=4	=4	=4	=4	=4	=4	=4	=4	=4	=4	=4	=4	=4	=4	=4	=4	=4	=4	=4
!LO:TX:a:t=1	!	!	!	!	!	!	!	!	!	!	!	!LO:TX:a:t=1	!	!	!LO:TX:a:t=1	!	!	!	!	!	!	!
1r	.	.	8g/L|	.	8g/L|	.	24b/LL	.	1r	.	.	1r	.	.	1r	.	.	1r	.	.	1r	1r
.	.	.	.	.	.	.	24d/	.	.	.	.	.	.	.	.	.	.	.	.	.	.	.
.	.	.	.	.	.	.	24d/JJ	.	.	.	.	.	.	.	.	.	.	.	.	.	.	.
.	.	.	8f#/|	.	8f#/|	.	24a/LL	.	.	.	.	.	.	.	.	.	.	.	.	.	.	.
.	.	.	.	.	.	.	24d/	.	.	.	.	.	.	.	.	.	.	.	.	.	.	.
.	.	.	.	.	.	.	24d/JJ	.	.	.	.	.	.	.	.	.	.	.	.	.	.	.
.	.	.	8g/|	.	8g/|	.	24b/LL	.	.	.	.	.	.	.	.	.	.	.	.	.	.	.
.	.	.	.	.	.	.	24d/	.	.	.	.	.	.	.	.	.	.	.	.	.	.	.
.	.	.	.	.	.	.	24d/JJ	.	.	.	.	.	.	.	.	.	.	.	.	.	.	.
.	.	.	8f#/J|	.	8f#/J|	.	24a/LL	.	.	.	.	.	.	.	.	.	.	.	.	.	.	.
.	.	.	.	.	.	.	24d/	.	.	.	.	.	.	.	.	.	.	.	.	.	.	.
.	.	.	.	.	.	.	24d/JJ	.	.	.	.	.	.	.	.	.	.	.	.	.	.	.
.	.	.	8g/L	.	8g/L	.	16b\LL	.	.	.	.	.	.	.	.	.	.	.	.	.	.	.
.	.	.	.	.	.	.	16dd\	.	.	.	.	.	.	.	.	.	.	.	.	.	.	.
.	.	.	8f#/	.	8f#/	.	16a\	.	.	.	.	.	.	.	.	.	.	.	.	.	.	.
.	.	.	.	.	.	.	16dd\JJ	.	.	.	.	.	.	.	.	.	.	.	.	.	.	.
.	.	.	8e/	.	8e/	.	4g/	.	.	.	.	.	.	.	.	.	.	.	.	.	.	.
.	.	.	8A/J	.	8A/J	.	.	.	.	.	.	.	.	.	.	.	.	.	.	.	.	.
=5	=5	=5	=5	=5	=5	=5	=5	=5	=5	=5	=5	=5	=5	=5	=5	=5	=5	=5	=5	=5	=5	=5
!	!	!	!	!	!LO:TX:t=P:problem:mixed beam	!	!	!LO:DY:rj:t=f&colon;	!	!	!	!	!	!	!	!	!	!	!	!	!	!
*2\right	*	*	*	*	*	*	*	*	*	*	*	*	*	*	*	*	*	*	*	*	*	*
*tremolo	*	*	*	*	*	*	*	*	*	*	*	*	*	*	*	*	*	*	*	*	*	*
8D\L	.	.	8d/L	.	8d/L	.	16f#/LL	f	4d\	An-	.	4d\	An-	.	4a\	an-	.	4ff#\	an-	.	8dd\L	8ff#\L
.	.	.	.	.	.	.	16dd/	.	.	.	.	.	.	.	.	.	.	.	.	.	.	.
8D\	.	.	8a\	.	8ff#/	.	16a/	.	.	.	.	.	.	.	.	.	.	.	.	.	16dd\L	16ff#\L
.	.	.	.	.	.	.	16ff#/JJ	.	.	.	.	.	.	.	.	.	.	.	.	.	16dd\JJ	16ff#\JJ
8D\	.	.	8a\	.	8ff#/	.	16dd\LL	.	4d\	-ge-	.	4d\	-ge-	.	4a\	-ge-	.	4ff#\	-ge-	.	8dd\L	8ff#\L
.	.	.	.	.	.	.	16aa\	.	.	.	.	.	.	.	.	.	.	.	.	.	.	.
8D\J	.	.	8a\J	.	8ff#/J	.	16ff#\	.	.	.	.	.	.	.	.	.	.	.	.	.	8dd\J	8ff#\J
.	.	.	.	.	.	.	16ddd\JJ	.	.	.	.	.	.	.	.	.	.	.	.	.	.	.
!	!	!	!	!	!	!	!LO:LB:g=original	!	!	!	!	!	!	!	!	!	!	!	!	!	!	!
*	*	*	*	*	*2\right	*	*	*	*	*	*	*	*	*	*	*	*	*	*	*	*	*
*	*	*	*tremolo	*	*tremolo	*	*	*	*	*	*	*	*	*	*	*	*	*	*	*	*	*
8D\L	.	.	8a/L	.	8ff#\L	.	16dd\LL	.	4d\	-lo-	.	4d\	-lo-	.	4a\	-lo-	.	4ff#\	-lo-	.	4dd\	4ff#\
.	.	.	.	.	.	.	16aa\	.	.	.	.	.	.	.	.	.	.	.	.	.	.	.
8D\	.	.	8a/	.	8ff#\	.	16a\	.	.	.	.	.	.	.	.	.	.	.	.	.	.	.
.	.	.	.	.	.	.	16ff#\JJ	.	.	.	.	.	.	.	.	.	.	.	.	.	.	.
8D\	.	.	8a/	.	8ff#\	.	16f#/LL	.	8d\	-ru(m)	.	8d\	-ru(m)	.	8a\	-rum	.	8ff#\	-rum	.	4r	4r
.	.	.	.	.	.	.	16dd/	.	.	.	.	.	.	.	.	.	.	.	.	.	.	.
!	!	!	!	!	!	!	!	!	!	!	!	!LO:SIC:l:s=Re-:v	!	!	!	!	!	!	!	!	!	!
8D\J	.	.	8a/J	.	8ff#\J	.	16d/	.	8d\	Re-	.	8d\	Pa-	.	8a\	Re-	.	8ff#\	Re-	.	.	.
.	.	.	.	.	.	.	16a/JJ	.	.	.	.	.	.	.	.	.	.	.	.	.	.	.
=6	=6	=6	=6	=6	=6	=6	=6	=6	=6	=6	=6	=6	=6	=6	=6	=6	=6	=6	=6	=6	=6	=6
!	!	!	!LO:LB:g=original	!	!	!	!	!	!	!	!	!	!	!	!	!	!	!LO:PB:g=original	!	!	!	!
!	!	!	!	!	!	!	!	!	!	!	!	!LO:SIC:l:s=gi-:v	!	!	!	!	!	!	!	!	!	!
*	*	*	*2\right	*	*	*	*	*	*	*	*	*	*	*	*	*	*	*	*	*	*	*
8A\L	.	.	8cc#\L	.	8ee\L	.	16c#/LL	.	8A\	-gi-	.	8c#\	-tri-	.	8a\	-gi-	.	8ee\	-gi-	.	8ee\L	8ee\L
.	.	.	.	.	.	.	16a/	.	.	.	.	.	.	.	.	.	.	.	.	.	.	.
!	!	!	!	!	!	!	!	!	!	!	!	!LO:SIC:l:s=na:v	!	!	!	!	!	!	!	!	!	!
8A\	.	.	8cc#\	.	8ee\	.	16e/	.	8A\	-na	.	8d\	-ar-	.	8a\	-na	.	8ee\	-na	.	16ee\L	16ee\L
.	.	.	.	.	.	.	16cc#/JJ	.	.	.	.	.	.	.	.	.	.	.	.	.	16ee\J	16ee\JJ
!	!	!	!	!	!	!	!	!	!	!	!	!LO:SIC:l:s=Pa-:v	!	!	!	!	!	!	!	!	!	!
8A\	.	.	8cc#\	.	8ee\	.	16a\LL	.	8A\	Pa-	.	8c#\	-cha-	.	8a\	Pa-	.	8ee\	Pa-	.	8ee\	8ee\L
.	.	.	.	.	.	.	16ee\	.	.	.	.	.	.	.	.	.	.	.	.	.	.	.
!	!	!	!	!	!	!	!	!	!LO:LB:g=original	!	!	!	!	!	!	!	!	!	!	!	!	!
!	!	!	!	!	!	!	!	!	!	!	!	!LO:SIC:l:s=tri-:v	!	!	!	!	!	!	!	!	!	!
8A\J	.	.	8cc#\J	.	8ee\J	.	16cc#\	.	16A\	-tri-	.	16c#\	-rum	.	16a\	-tri-	.	16ee\	-tri-	.	8ee\J	8ee\J
!	!	!	!	!	!	!	!	!	!	!	!	!LO:SIC:l:s=ar-:v	!	!	!	!	!	!	!	!	!	!
.	.	.	.	.	.	.	16aa\JJ	.	16A\	-ar-	.	16c#\	.	.	16a\	-ar-	.	16ee\	-ar-	.	.	.
!	!	!	!	!	!	!	!	!	!	!	!	!	!	!	!LO:LB:g=original	!	!	!	!	!	!	!
!	!	!	!	!	!	!	!	!	!	!	!	!LO:SIC:l:s=cha-:v	!	!	!	!	!	!	!	!	!	!
8A\L	.	.	8cc#\L	.	8ee\L	.	16cc#\LL	.	4A\	-cha-	.	4c#\	.	.	4a\	-cha-	.	4ee\	-cha-	.	4ee\	4ee\
.	.	.	.	.	.	.	16ee\	.	.	.	.	.	.	.	.	.	.	.	.	.	.	.
8A\	.	.	8cc#\	.	8ee\	.	16a\	.	.	.	.	.	.	.	.	.	.	.	.	.	.	.
.	.	.	.	.	.	.	16cc#\JJ	.	.	.	.	.	.	.	.	.	.	.	.	.	.	.
!	!	!	!	!	!	!	!	!	!	!	!	!LO:SIC:l:s=rum:v	!	!	!	!	!	!	!	!	!	!
8A\	.	.	8cc#\	.	8ee\	.	16c#/LL	.	8A\	-ru(m)	.	8c#\	.	.	8a\	-ru(m)	.	8ee\	-ru(m)	.	4r	4r
.	.	.	.	.	.	.	16a/	.	.	.	.	.	.	.	.	.	.	.	.	.	.	.
8A\J	.	.	8cc#\J	.	8ee\J	.	16A/	.	8A\	Re-	.	8c#\	Re-	.	8a\	Re-	.	8ee\	Re-	.	.	.
.	.	.	.	.	.	.	16e/JJ	.	.	.	.	.	.	.	.	.	.	.	.	.	.	.
=7	=7	=7	=7	=7	=7	=7	=7	=7	=7	=7	=7	=7	=7	=7	=7	=7	=7	=7	=7	=7	=7	=7
!	!	!	!	!	!	!	!	!	!	!	!	!LO:LB:g=original	!	!	!	!	!	!	!	!	!	!
!	!	!	!	!	!	!	!	!	!	!	!	!	!	!	!	!	!	!	!	!	!LO:TX:a:t=P:problem:takt zapisany repetycją	!
8E\L	#	.	8b\L	.	8dd\L	.	16B/LL	.	8E\	-gi-	.	8B\	-gi-	.	8g#X\	-gi-	.	8dd\	-gi-	.	8ee\Lyy	8ee\L
.	.	.	.	.	.	.	16g#X/	.	.	.	.	.	.	.	.	.	.	.	.	.	.	.
8E\	.	.	8b\	.	8dd\	.	16e/	.	8E\	-na	.	8B\	-na	.	8g#\	-na	.	8dd\	-na	.	16ee\Lyy	16ee\L
.	.	.	.	.	.	.	16b/JJ	.	.	.	.	.	.	.	.	.	.	.	.	.	16ee\Jyy	16ee\JJ
8E\	.	.	8b\	.	8dd\	.	16g#\LL	.	8E\	Pro-	.	8B\	Pro-	.	8g#\	Pro-	.	8dd\	Pro-	.	8ee\yy	8ee\L
.	.	.	.	.	.	.	16ee\	.	.	.	.	.	.	.	.	.	.	.	.	.	.	.
8E\J	.	.	8b\J	.	8dd\J	.	16b\	.	8E\	-phe-	.	8B\	-phe-	.	8g#\	-phe-	.	8dd\	-phe-	.	8ee\Jyy	8ee\J
.	.	.	.	.	.	.	16gg#X\JJ	.	.	.	.	.	.	.	.	.	.	.	.	.	.	.
8E\L	.	.	8b\L	.	8dd\L	.	16dd\LL	.	4E\	-ta-	.	4B\	-ta-	.	4g#\	-ta-	.	4dd\	-ta-	.	4ee\yy	4ee\
.	.	.	.	.	.	.	16bb\	.	.	.	.	.	.	.	.	.	.	.	.	.	.	.
8E\	.	.	8b\	.	8dd\	.	16b\	.	.	.	.	.	.	.	.	.	.	.	.	.	.	.
.	.	.	.	.	.	.	16gg#\JJ	.	.	.	.	.	.	.	.	.	.	.	.	.	.	.
8E\	.	.	8b\	.	8dd\	.	16g#X\LL	.	8E\	-ru(m)	.	8B\	-ru(m)	.	8g#\	-ru(m)	.	8dd\	-ru(m)	.	4ryy	4r
.	.	.	.	.	.	.	16ee\	.	.	.	.	.	.	.	.	.	.	.	.	.	.	.
8E\J	.	.	8b\J	.	8dd\J	.	16e\	.	8E\	o-	.	8B\	o-	.	8g#\	o-	.	8dd\	o-	.	.	.
.	.	.	.	.	.	.	16b\JJ	.	.	.	.	.	.	.	.	.	.	.	.	.	.	.
*Xtremolo	*	*	*Xtremolo	*	*	*	*	*	*	*	*	*	*	*	*	*	*	*	*	*	*	*
=8	=8	=8	=8	=8	=8	=8	=8	=8	=8	=8	=8	=8	=8	=8	=8	=8	=8	=8	=8	=8	=8	=8
!	!	!	!	!	!LO:LB:g=original	!	!	!	!	!	!	!	!	!	!	!	!	!	!	!	!	!LO:LB:g=original
4A\	.	.	4e/	.	4cc#\	.	16a\LL	.	4F#\	-ra	.	4A\	-ra	.	4e\	-ra	.	4cc#\	-ra	.	4a/	4ee\
.	.	.	.	.	.	.	16aa 16cc#\	.	.	.	.	.	.	.	.	.	.	.	.	.	.	.
.	.	.	.	.	.	.	16aa 16cc#\	.	.	.	.	.	.	.	.	.	.	.	.	.	.	.
.	.	.	.	.	.	.	16aaJJ 16cc#\	.	.	.	.	.	.	.	.	.	.	.	.	.	.	.
!	!	!	!	!	!	!	!LO:LB:g=original	!	!	!	!	!	!	!	!	!	!	!	!	!	!	!
!	!	!	!	!	!	!	!LO:TX:t=P:problem:mixed beam	!	!	!	!	!	!	!	!	!	!	!	!	!	!	!
8r	.	.	8r	.	8r	.	16e/LL	.	8r	.	.	8r	.	.	8r	.	.	8r	.	.	4r	4r
.	.	.	.	.	.	.	16bb 16dd\	.	.	.	.	.	.	.	.	.	.	.	.	.	.	.
*	*	*	*8\right	*	*	*	*	*	*	*ij	*	*	*ij	*	*	*ij	*	*	*ij	*	*	*
8E\	#	.	8b\	.	8dd\	.	16bb 16dd\	.	8E\	o-	.	8B\	o-	.	8e\	o-	.	8dd\	o-	.	.	.
.	.	.	.	.	.	.	16bbJJ 16dd\	.	.	.	.	.	.	.	.	.	.	.	.	.	.	.
4A\	.	.	4e/	.	4cc#\	.	24a\LL	.	4A\	-ra	.	4A\	-ra	.	4e\	-ra	.	4cc#\	-ra	.	4a/	4ee\
.	.	.	.	.	.	.	24cc#\	.	.	.	.	.	.	.	.	.	.	.	.	.	.	.
.	.	.	.	.	.	.	24ee\JJ	.	.	.	.	.	.	.	.	.	.	.	.	.	.	.
.	.	.	.	.	.	.	24aa\LL	.	.	.	.	.	.	.	.	.	.	.	.	.	.	.
.	.	.	.	.	.	.	24ee\	.	.	.	.	.	.	.	.	.	.	.	.	.	.	.
.	.	.	.	.	.	.	24cc#\JJ	.	.	.	.	.	.	.	.	.	.	.	.	.	.	.
8r	.	.	8r	.	8r	.	24dd\LL	.	8r	.	.	8r	.	.	8r	.	.	8r	.	.	4r	4r
.	.	.	.	.	.	.	24ee\	.	.	.	.	.	.	.	.	.	.	.	.	.	.	.
.	.	.	.	.	.	.	24gg#X\JJ	.	.	.	.	.	.	.	.	.	.	.	.	.	.	.
8E\	#	.	8b\	.	8dd\	.	24bb\LL	.	8E\	o-	.	8B\	o-	.	8e\	o-	.	8dd\	o-	.	.	.
.	.	.	.	.	.	.	24gg#\	.	.	.	.	.	.	.	.	.	.	.	.	.	.	.
.	.	.	.	.	.	.	24dd\JJ	.	.	.	.	.	.	.	.	.	.	.	.	.	.	.
=9	=9	=9	=9	=9	=9	=9	=9	=9	=9	=9	=9	=9	=9	=9	=9	=9	=9	=9	=9	=9	=9	=9
!LO:LB:g=original	!	!	!	!	!	!	!	!	!	!	!	!	!	!	!	!	!	!	!	!	!LO:LB:g=original	!
!LO:TX:t=P:problem:mixed beam	!	!	!	!	!	!	!	!	!	!	!	!	!	!	!	!	!	!	!	!	!	!
8A\L	.	.	4e/	.	4cc#\	.	16cc#\LL	.	8A\	-ra	.	8A\	-ra	.	8a\	-ra	.	8cc#\	-ra	.	4a/	4ee\
*	*	*	*	*	*	*	*	*	*	*Xij	*	*	*Xij	*	*	*Xij	*	*	*Xij	*	*	*
.	.	.	.	.	.	.	16ee\	.	.	.	.	.	.	.	.	.	.	.	.	.	.	.
8AA/J	.	.	.	.	.	.	16aa\	.	8A\	pro	.	8f#\	pro	.	8a\	pro	.	8cc#\	pro	.	.	.
.	.	.	.	.	.	.	16ccc#\JJ	.	.	.	.	.	.	.	.	.	.	.	.	.	.	.
!	!	!	!	!	!	!	!	!	!LO:LB:g=original	!	!	!	!	!	!	!	!	!	!	!	!	!
16AA/LL	.	.	8cc#\L	.	8aa\L	.	8eee\L	.	16AA/LL	no-	.	4e\	no-	.	4.a\	no-	.	4cc#\	no-	.	4r	4r
16BB/	.	.	.	.	.	.	.	.	16BB/	.	.	.	.	.	.	.	.	.	.	.	.	.
16C#/	.	.	8a\J	.	8cc#\J	.	8cc#\J	.	16C#/	.	.	.	.	.	.	.	.	.	.	.	.	.
16D/JJ	.	.	.	.	.	.	.	.	16D/JJ	.	.	.	.	.	.	.	.	.	.	.	.	.
8E\L	#	.	8g#X/L	.	8b/L	.	8b/L	.	4E\	-bis	.	4e\	-bis	.	.	.	.	4b\	-bis,	.	4ee\	4ee\
8E\	.	.	8g#/	.	8eeJ 8b 8e/	.	8ee 8b 8e/	.	.	.	.	.	.	.	8g#X\	-bis	.	.	.	.	.	.
8E\J	.	.	8g#/J	.	8ee 8b 8e/	.	8eeJ 8b 8e/	.	4r	.	.	4r	.	.	4r	.	.	4r	.	.	4r	4r
8r	.	.	8r	.	8r	.	8r	.	.	.	.	.	.	.	.	.	.	.	.	.	.	.
=10	=10	=10	=10	=10	=10	=10	=10	=10	=10	=10	=10	=10	=10	=10	=10	=10	=10	=10	=10	=10	=10	=10
!	!	!	!	!	!	!	!	!	!	!	!	!	!	!	!	!	!	!LO:LB:g=original	!	!	!	!
!	!	!	!	!	!	!	!	!	!	!	!	!LO:TX:a:t=1	!	!	!	!	!	!LO:TX:a:t=problem&colon;2\right&colon;global	!	!	!	!LO:TX:a:t=6
*	*	*	*	*	*	*	*	*	*2\right	*	*	*	*	*	*2\right	*	*	*2\right	*	*below	*	*
!	!	!	!	!	!	!	!	!	!	!	!	!	!	!	!LO:SIC:s=2g#:v	!	!	!	!	!	!	!
8E\L|	.	p	2g#X/	p	2ee\	p	00r	.	2E\	Re-	.	1r	.	.	2g\	Re-	p	2ee\	Re-	p	00r	00r
8E\|	.	.	.	.	.	.	.	.	.	.	.	.	.	.	.	.	.	.	.	.	.	.
8E\|	.	.	.	.	.	.	.	.	.	.	.	.	.	.	.	.	.	.	.	.	.	.
8E\J|	.	.	.	.	.	.	.	.	.	.	.	.	.	.	.	.	.	.	.	.	.	.
*tremolo	*	*	*	*	*	*	*	*	*	*	*	*	*	*	*	*	*	*	*	*	*	*
8E\L|	.	.	4a/	.	4dd#X\	.	.	.	4F#\	-gi-	.	.	.	.	4a\	-gi-	.	4dd#X\	-gina	.	.	.
8E\	.	.	.	.	.	.	.	.	.	.	.	.	.	.	.	.	.	.	.	.	.	.
8E\	.	.	4b/	.	4ddn\	.	.	.	[8G#X\	-na	.	.	.	.	8b\	-na	.	4ddn\	a-	.	.	.
8E\J	.	.	.	.	.	.	.	.	8G#\]	.	.	.	.	.	8b\	Pa-	.	.	.	.	.	.
*Xtremolo	*	*	*	*	*	*	*	*	*	*	*	*	*	*	*	*	*	*	*	*	*	*
=11	=11	=11	=11	=11	=11	=11	=11	=11	=11	=11	=11	=11	=11	=11	=11	=11	=11	=11	=11	=11	=11	=11
!	!	!	!	!	!	!	!	!	!	!	!	!	!	!	!LO:LB:g=original	!	!	!	!	!	!	!
8E\L	.	.	4a/	.	4cc#X\	.	.	.	4A\	Pro-	.	2r	.	.	4a\	-tri-	.	4cc#X\	-poſto	.	.	.
8E\	.	.	.	.	.	.	.	.	.	.	.	.	.	.	.	.	.	.	.	.	.	.
!	!	!	!	!	!	!	!	!	!	!	!	!	!	!	!	!	!	!LO:TX:a:t=P:problem:pokreślone nuty	!	!	!	!
8D#X\	n	.	4a/	.	4ccn\	.	.	.	4D#X\	-phe-	.	.	.	.	4a\	-ar-	.	8ccn\	.	.	.	.
8D#\J	7	.	.	.	.	.	.	.	.	.	.	.	.	.	.	.	.	8cc\	.	.	.	.
4E\	.	.	8a/L	.	8cc\L	.	.	.	8E\	-ta-	.	8r	.	.	8a\	-cha-	.	8cc\	-lo-	.	.	.
!	!	!	!	!	!	!	!	!	!	!	!	!	!	!LO:DY:a	!LO:SIC:s=8g#:v	!	!	!	!	!	!	!
.	.	.	8g#X/J	.	8b\J	.	.	.	8E\	-rum	.	8e\	o-	p	8g\	-rum	.	8b\	-rum	.	.	.
4r	.	.	4r	.	4r	.	.	.	4r	.	.	8e\	-ra	.	4r	.	.	4r	.	.	.	.
.	.	.	.	.	.	.	.	.	.	.	.	8e\	pro	.	.	.	.	.	.	.	.	.
=12	=12	=12	=12	=12	=12	=12	=12	=12	=12	=12	=12	=12	=12	=12	=12	=12	=12	=12	=12	=12	=12	=12
!	!	!	!	!	!	!	!	!	!	!	!	!	!	!	!LO:TX:a:t=P:problem:takty 12- 13 zapisane repetycją	!	!	!	!	!	!	!
*tremolo	*	*	*	*	*	*	*	*	*	*	*	*	*	*	*	*	*	*	*	*	*	*
!	!	!	!	!	!	!	!	!	!	!	!	!	!	!	!LO:SIC:s=2g#:v	!	!	!	!	!	!	!
*	*	*	*	*	*	*	*	*	*	*	*	*	*	*	*	*	*	*	*ij	*	*	*
8E\L|	.	.	2g#X/	.	2ee\	.	.	.	2E\	Re-	.	8e\	no-	.	2g\yy	Re-	.	2ee\	Re-	.	.	.
8E\	.	.	.	.	.	.	.	.	.	.	.	8e\	-bis,	.	.	.	.	.	.	.	.	.
8E\	.	.	.	.	.	.	.	.	.	.	.	4r	.	.	.	.	.	.	.	.	.	.
8E\J	.	.	.	.	.	.	.	.	.	.	.	.	.	.	.	.	.	.	.	.	.	.
8E\L|	.	.	4a/	.	4dd#X\	.	.	.	4F#\	-gi-	.	2r	.	.	4a\yy	-gi-	.	4dd#X\	-gi-	.	.	.
8E\	.	.	.	.	.	.	.	.	.	.	.	.	.	.	.	.	.	.	.	.	.	.
8E\	.	.	4b/	.	4ddn\	.	.	.	8G\	-na	.	.	.	.	8b\yy	-na	.	8ddn\	-na	.	.	.
8E\J	.	.	.	.	.	.	.	.	8G#X\	A-	.	.	.	.	8b\yy	A-	.	8dd\	a-	.	.	.
*Xtremolo	*	*	*	*	*	*	*	*	*	*	*	*	*	*	*	*	*	*	*	*	*	*
=13	=13	=13	=13	=13	=13	=13	=13	=13	=13	=13	=13	=13	=13	=13	=13	=13	=13	=13	=13	=13	=13	=13
!	!	!	!LO:LB:g=original	!	!	!	!	!	!LO:LB:g=original	!	!	!LO:LB:g=original	!	!	!LO:LB:g=original	!	!	!	!	!	!	!
8E\L	.	.	4a/	.	4cc#X\	.	.	.	4A\	-po-	.	2r	.	.	4a\yy	-po-	.	4cc#\	-po-	.	.	.
8E\	.	.	.	.	.	.	.	.	.	.	.	.	.	.	.	.	.	.	.	.	.	.
8D#X\	n	.	4a/	.	4ccn\	.	.	.	4D#X\	-sto-	.	.	.	.	4a\yy	-sto-	.	4ccn\	-ſto-	.	.	.
8D#\J	7 5	.	.	.	.	.	.	.	.	.	.	.	.	.	.	.	.	.	.	.	.	.
4E\	#	.	8a/L	.	8cc\L	.	.	.	8E\	-lo-	.	8r	.	.	8a\yy	-lo-	.	8cc\	-lo-	.	.	.
!	!	!	!	!	!	!	!	!	!	!	!	!	!	!	!LO:SIC:s=8g#:v	!	!	!	!	!	!	!
*	*	*	*	*	*	*	*	*	*	*	*	*	*ij	*	*	*	*	*	*	*	*	*
.	.	.	8g#X/J	.	8b\J	.	.	.	8E\	-rum	.	8e\	o-	.	8g\yy	-rum	.	8b\	-rum	.	.	.
*	*	*	*	*	*	*	*	*	*	*	*	*	*	*	*	*	*	*	*Xij	*	*	*
4r	.	.	4r	.	4r	.	.	.	4r	.	.	8e\	-ra	.	4ryy	.	.	4r	.	.	.	.
.	.	.	.	.	.	.	.	.	.	.	.	8e\	pro	.	.	.	.	.	.	.	.	.
=14	=14	=14	=14	=14	=14	=14	=14	=14	=14	=14	=14	=14	=14	=14	=14	=14	=14	=14	=14	=14	=14	=14
!	!	!	!	!	!	!	!	!	!	!	!	!	!	!	!LO:TX:a:t=2	!	!	!	!	!	!	!
0r	.	.	8r	.	8r	.	4r	.	0r	.	.	8e\	no-	.	0r	.	.	0r	.	.	0r	0r
.	.	.	8e/L	.	8e/L	.	.	.	.	.	.	8e\	-bis	.	.	.	.	.	.	.	.	.
*	*	*	*	*	*	*	*	*	*	*	*	*	*Xij	*	*	*	*	*	*	*	*	*
.	.	.	8c#/	.	8c#/	.	8r	.	.	.	.	4r	.	.	.	.	.	.	.	.	.	.
.	.	.	8A/J	.	8A/J	.	8ee\	.	.	.	.	.	.	.	.	.	.	.	.	.	.	.
.	.	.	8d/L	.	8d/L	.	32ff#\LLL	.	.	.	.	2r	.	.	.	.	.	.	.	.	.	.
.	.	.	.	.	.	.	32ee\	.	.	.	.	.	.	.	.	.	.	.	.	.	.	.
.	.	.	.	.	.	.	32dd\	.	.	.	.	.	.	.	.	.	.	.	.	.	.	.
.	.	.	.	.	.	.	32cc#\JJJ	.	.	.	.	.	.	.	.	.	.	.	.	.	.	.
.	.	.	8b/	.	8b/	.	16dd\LL	.	.	.	.	.	.	.	.	.	.	.	.	.	.	.
.	.	.	.	.	.	.	16ddd\JJ	.	.	.	.	.	.	.	.	.	.	.	.	.	.	.
.	.	.	8g#X/	.	8g#X/	.	16r	.	.	.	.	.	.	.	.	.	.	.	.	.	.	.
.	.	.	.	.	.	.	16bb\	.	.	.	.	.	.	.	.	.	.	.	.	.	.	.
.	.	.	8b/J	.	8b/J	.	16r	.	.	.	.	.	.	.	.	.	.	.	.	.	.	.
.	.	.	.	.	.	.	16dd\	.	.	.	.	.	.	.	.	.	.	.	.	.	.	.
=15	=15	=15	=15	=15	=15	=15	=15	=15	=15	=15	=15	=15	=15	=15	=15	=15	=15	=15	=15	=15	=15	=15
!	!	!	!	!	!	!	!LO:LB:g=original	!	!	!	!	!	!	!	!	!	!	!	!	!	!	!
!	!	!	!	!	!	!	!	!	!	!	!	!LO:TX:a:t=1	!	!	!	!	!	!	!	!	!	!
.	.	.	8cc#/L	.	8cc#/L	.	32ee\LLL	.	.	.	.	1r	.	.	.	.	.	.	.	.	.	.
.	.	.	.	.	.	.	32dd\	.	.	.	.	.	.	.	.	.	.	.	.	.	.	.
.	.	.	.	.	.	.	32cc#\	.	.	.	.	.	.	.	.	.	.	.	.	.	.	.
.	.	.	.	.	.	.	32b\JJJ	.	.	.	.	.	.	.	.	.	.	.	.	.	.	.
.	.	.	8a/	.	8a/	.	16cc#\LL	.	.	.	.	.	.	.	.	.	.	.	.	.	.	.
.	.	.	.	.	.	.	16ccc#\JJ	.	.	.	.	.	.	.	.	.	.	.	.	.	.	.
.	.	.	8f#/	.	8f#/	.	16r	.	.	.	.	.	.	.	.	.	.	.	.	.	.	.
.	.	.	.	.	.	.	16aa\	.	.	.	.	.	.	.	.	.	.	.	.	.	.	.
!	!	!	!	!	!LO:TX:b:t=Volti Subbitto	!	!	!	!	!	!	!	!	!	!	!	!	!	!	!	!	!
.	.	.	8a/J	.	8a/J	.	16r	.	.	.	.	.	.	.	.	.	.	.	.	.	.	.
.	.	.	.	.	.	.	16cc#\	.	.	.	.	.	.	.	.	.	.	.	.	.	.	.
!	!	!	!	!	!LO:PB:g=original	!	!	!	!	!	!	!	!	!	!	!	!	!	!	!	!	!
.	.	.	8b/L	.	8b/L	.	32dd\LLL	.	.	.	.	.	.	.	.	.	.	.	.	.	.	.
.	.	.	.	.	.	.	32cc#\	.	.	.	.	.	.	.	.	.	.	.	.	.	.	.
.	.	.	.	.	.	.	32b\	.	.	.	.	.	.	.	.	.	.	.	.	.	.	.
.	.	.	.	.	.	.	32a#X\JJJ	.	.	.	.	.	.	.	.	.	.	.	.	.	.	.
.	.	.	8g#X/	.	8g#X/	.	16b\LL	.	.	.	.	.	.	.	.	.	.	.	.	.	.	.
.	.	.	.	.	.	.	16bb\JJ	.	.	.	.	.	.	.	.	.	.	.	.	.	.	.
.	.	.	8e/	.	8e/	.	16r	.	.	.	.	.	.	.	.	.	.	.	.	.	.	.
.	.	.	.	.	.	.	16gg#X\	.	.	.	.	.	.	.	.	.	.	.	.	.	.	.
.	.	.	8g#/J	.	8g#/J	.	16r	.	.	.	.	.	.	.	.	.	.	.	.	.	.	.
.	.	.	.	.	.	.	16dd\	.	.	.	.	.	.	.	.	.	.	.	.	.	.	.
=16	=16	=16	=16	=16	=16	=16	=16	=16	=16	=16	=16	=16	=16	=16	=16	=16	=16	=16	=16	=16	=16	=16
4r	.	.	4a/	.	4a/	.	16cc#\LL	.	4r	.	.	4r	.	.	4r	.	.	4r	.	.	4r	4r
.	.	.	.	.	.	.	16aa\	.	.	.	.	.	.	.	.	.	.	.	.	.	.	.
.	.	.	.	.	.	.	16ee\	.	.	.	.	.	.	.	.	.	.	.	.	.	.	.
.	.	.	.	.	.	.	16cc#\JJ	.	.	.	.	.	.	.	.	.	.	.	.	.	.	.
!	!	!	!LO:TX:t=P:problem:mixed beam	!LO:DY:a	!LO:TX:t=P:problem:mixed beam	!	!	!	!	!	!	!	!	!	!	!	!	!	!	!	!	!
8r	.	.	8e/L	f	8e/L	.	8b\	.	8r	.	.	8r	.	.	8r	.	.	8r	.	.	8r	8r
!	!	!	!	!	!	!	!	!	!	!	!	!	!	!	!	!	!	!LO:LB:g=original	!	!	!	!
!	!	!	!	!	!	!	!	!	!	!	!	!	!	!LO:DY:a	!	!	!	!	!	!	!	!
8A\	.	f	8ee\J	.	8ee\J	f	8r	.	8A\	O-	.	8c#\	o-	f	8a\	o-	f	8ee\	o-	f	8a/	8ee\
*	*	*	*16\right	*	*	*	*	*	*	*	*	*	*	*	*	*	*	*	*	*	*	*
16d\LL	.	.	16ff#\LL	.	16ff#\LL	.	2r	.	16d\LL	.	.	4.d\	.	.	4a\	-ra	.	16ff#\LL	.	.	4dd\	4ff#\
16c#\	.	.	16ee\	.	16ee\	.	.	.	16c#\	.	.	.	.	.	.	.	.	16ee\	.	.	.	.
16B\	.	.	16dd\	.	16dd\	.	.	.	16B\	.	.	.	.	.	.	.	.	16dd\	.	.	.	.
16A\JJ	.	.	16cc#\JJ	.	16cc#\JJ	.	.	.	16A\JJ	.	.	.	.	.	.	.	.	16cc#\JJ	.	.	.	.
4G#X\	7	.	16b\LL	.	16b\LL	.	.	.	4G#X\	.	.	.	.	.	4b\	pro	.	16b\LL	.	.	4r	4r
.	.	.	16dd\	.	16dd\	.	.	.	.	.	.	.	.	.	.	.	.	16dd\	.	.	.	.
*	*	*	*	*	*	*	*	*	*	*	*	*Xtuplet	*	*	*	*	*	*	*	*	*	*
.	.	.	16ee\	.	16ee\	.	.	.	.	.	.	24B\LL	.	.	.	.	.	16ee\	.	.	.	.
.	.	.	.	.	.	.	.	.	.	.	.	24c#\	.	.	.	.	.	.	.	.	.	.
.	.	.	16ff#\JJ	.	16ff#\JJ	.	.	.	.	.	.	.	.	.	.	.	.	16ff#\JJ	.	.	.	.
.	.	.	.	.	.	.	.	.	.	.	.	24d\JJ	.	.	.	.	.	.	.	.	.	.
=17	=17	=17	=17	=17	=17	=17	=17	=17	=17	=17	=17	=17	=17	=17	=17	=17	=17	=17	=17	=17	=17	=17
!LO:LB:g=original	!	!	!	!	!	!	!	!	!	!	!	!	!	!	!	!	!	!	!	!	!	!
16c#\LL	7	.	16ee\LL	.	16ee\LL	.	1r	.	16c#\LL	.	.	4.c#\	.	.	(4g#X\	no-	.	16ee\LL	.	.	4ee\	4ee\
16B\	.	.	16dd\	.	16dd\	.	.	.	16B\	.	.	.	.	.	.	.	.	16dd\	.	.	.	.
16A\	.	.	16cc#\	.	16cc#\	.	.	.	16A\	.	.	.	.	.	.	.	.	16cc#\	.	.	.	.
!LO:SIC:s=16G#:v	!	!	!	!	!	!	!	!	!LO:SIC:s=16G#:v	!	!	!	!	!	!	!	!	!	!	!	!	!
16G\JJ	.	.	16b\JJ	.	16b\JJ	.	.	.	16G\JJ	.	.	.	.	.	.	.	.	16b\JJ	.	.	.	.
4F#\	7	.	16a\LL	.	16a\LL	.	.	.	4F#\	.	.	.	.	.	4a\)	.	.	16a\LL	.	.	4r	4r
.	.	.	16cc#\	.	16cc#\	.	.	.	.	.	.	.	.	.	.	.	.	16cc#\	.	.	.	.
.	.	.	16dd\	.	16dd\	.	.	.	.	.	.	24A\LL	.	.	.	.	.	16dd\	.	.	.	.
.	.	.	.	.	.	.	.	.	.	.	.	24B\	.	.	.	.	.	.	.	.	.	.
.	.	.	16ee\JJ	.	16ee\JJ	.	.	.	.	.	.	.	.	.	.	.	.	16ee\JJ	.	.	.	.
.	.	.	.	.	.	.	.	.	.	.	.	24c#\JJ	.	.	.	.	.	.	.	.	.	.
16B\LL	7	.	16dd\LL	.	16dd\LL	.	.	.	16B\LL	.	.	4.B\	.	.	4f#\	.	.	16dd\LL	.	.	8ee\L	8ee\L
16A\	.	.	16cc#\	.	16cc#\	.	.	.	16A\	.	.	.	.	.	.	.	.	16cc#\	.	.	.	.
!LO:SIC:s=16G#:v	!	!	!	!	!	!	!	!	!LO:SIC:s=16G#:v	!	!	!	!	!	!	!	!	!	!	!	!	!
16G\	.	.	16b\	.	16b\	.	.	.	16G\	.	.	.	.	.	.	.	.	16b\	.	.	16ee\L	16ee\L
16F#\JJ	.	.	16a\JJ	.	16a\JJ	.	.	.	16F#\JJ	.	.	.	.	.	.	.	.	16a\JJ	.	.	16ee\JJ	16ee\JJ
!	!	!	!LO:LB:g=original	!	!	!	!	!	!	!	!	!	!	!	!	!	!	!	!	!	!	!
4E\	7	.	16g#X\LL	.	16g#X\LL	.	.	.	4E\	.	.	.	.	.	4g#X\	.	.	16g#X\LL	.	.	8ee\L	8ee\L
.	.	.	16a\	.	16b\	.	.	.	.	.	.	.	.	.	.	.	.	16b\	.	.	.	.
.	.	.	16b\	.	16cc#\	.	.	.	.	.	.	24G#X/LL	.	.	.	.	.	16cc#\	.	.	8ee\J	8ee\J
.	.	.	.	.	.	.	.	.	.	.	.	24A/	.	.	.	.	.	.	.	.	.	.
.	.	.	16cc#\JJ	.	16dd\JJ	.	.	.	.	.	.	.	.	.	.	.	.	16dd\JJ	.	.	.	.
.	.	.	.	.	.	.	.	.	.	.	.	24B/JJ	.	.	.	.	.	.	.	.	.	.
=18	=18	=18	=18	=18	=18	=18	=18	=18	=18	=18	=18	=18	=18	=18	=18	=18	=18	=18	=18	=18	=18	=18
!	!	!	!	!	!	!	!	!	!LO:LB:g=original	!	!	!	!	!	!	!	!	!	!	!	!	!
8A\	.	.	8cc#\	.	8cc#\	.	16r	.	8A\	-ra	.	8A/	-ra	.	8e\	-bis	.	8cc#\	-ra	.	8a/	8ee\
.	.	.	.	.	.	.	16a\LL	.	.	.	.	.	.	.	.	.	.	.	.	.	.	.
8r	.	.	8r	.	8r	.	16b\	.	8r	.	.	8r	.	.	8r	.	.	8r	.	.	8r	8r
.	.	.	.	.	.	.	16cc#\JJ	.	.	.	.	.	.	.	.	.	.	.	.	.	.	.
4r	.	.	4r	.	4r	.	16dd\LL	.	4r	.	.	4r	.	.	4r	.	.	4r	.	.	4r	4r
.	.	.	.	.	.	.	16ee\	.	.	.	.	.	.	.	.	.	.	.	.	.	.	.
.	.	.	.	.	.	.	16ff#\	.	.	.	.	.	.	.	.	.	.	.	.	.	.	.
.	.	.	.	.	.	.	16gg#X\JJ	.	.	.	.	.	.	.	.	.	.	.	.	.	.	.
4r	.	.	4r	.	4r	.	16aa\LL	.	2r	.	.	2r	.	.	2r	.	.	2r	.	.	2r	2r
.	.	.	.	.	.	.	16bb\	.	.	.	.	.	.	.	.	.	.	.	.	.	.	.
.	.	.	.	.	.	.	16ccc#\	.	.	.	.	.	.	.	.	.	.	.	.	.	.	.
.	.	.	.	.	.	.	16ddd\JJ	.	.	.	.	.	.	.	.	.	.	.	.	.	.	.
8r	.	.	8r	.	8r	.	16ddd#X\LL	.	.	.	.	.	.	.	.	.	.	.	.	.	.	.
.	.	.	.	.	.	.	16eee\JJ	.	.	.	.	.	.	.	.	.	.	.	.	.	.	.
16r	.	.	16r	.	16r	.	16r	.	.	.	.	.	.	.	.	.	.	.	.	.	.	.
16D#X\|	.	.	16d#X/	.	16d#X/	.	16d#X/	.	.	.	.	.	.	.	.	.	.	.	.	.	.	.
=19	=19	=19	=19	=19	=19	=19	=19	=19	=19	=19	=19	=19	=19	=19	=19	=19	=19	=19	=19	=19	=19	=19
!	!	!	!	!	!	!	!LO:LB:g=original	!	!	!	!	!LO:LB:g=original	!	!	!	!	!	!	!	!	!	!
!	!	!	!	!	!	!	!	!	!	!	!	!	!	!	!	!	!	!	!	!	!LO:TX:a:t=P:problem:korekta ołówkiem - 2 takty zapisane repetycją	!LO:TX:a:t=P:problem:korekta ołówkiem - 2 takty zapisane repetycją
4E\|	.	.	4e/	.	4e/	.	4e/	.	4r	.	.	4r	.	.	4r	.	.	4r	.	.	4r	4r
*	*	*	*tremolo	*	*	*	*	*	*	*	*	*	*	*	*	*	*	*	*	*	*	*
4A\	3	.	16a/LL	.	16cc#\LL	.	4aa\	.	4A\	pro	.	4e\	pro	.	4a\	pro	.	4cc#\	pro	.	4dd\	4ff#\
.	.	.	16a/	.	16cc#\	.	.	.	.	.	.	.	.	.	.	.	.	.	.	.	.	.
.	.	.	16a/	.	16cc#\	.	.	.	.	.	.	.	.	.	.	.	.	.	.	.	.	.
.	.	.	16a/JJ	.	16cc#\JJ	.	.	.	.	.	.	.	.	.	.	.	.	.	.	.	.	.
*	*	*	*	*	*	*	*	*	*	*	*	*2\right	*	*	*	*	*	*	*	*	*	*
!	!	!	!	!	!LO:TX:a:t=h	!	!	!	!	!	!	!	!	!	!	!	!	!	!	!	!	!
4E\	4	.	16a/LL	.	16b\LL	.	4b\	.	2E\	no-	.	2e\	no-	.	(4a\	no-	.	2b\	no-	.	4ee\	4aa\
.	.	.	16a/	.	16b\	.	.	.	.	.	.	.	.	.	.	.	.	.	.	.	.	.
.	.	.	16a/	.	16b\	.	.	.	.	.	.	.	.	.	.	.	.	.	.	.	.	.
.	.	.	16a/JJ	.	16b\	.	.	.	.	.	.	.	.	.	.	.	.	.	.	.	.	.
4EE/	#	.	16g#X/LL	.	16b\	.	4gg#X\	.	.	.	.	.	.	.	4g#X\)	.	.	.	.	.	4ee\	4gg#X\
.	.	.	16g#X/	.	16b\	.	.	.	.	.	.	.	.	.	.	.	.	.	.	.	.	.
.	.	.	16g#X/	.	16b\	.	.	.	.	.	.	.	.	.	.	.	.	.	.	.	.	.
.	.	.	16g#X/JJ	.	16b\JJ	.	.	.	.	.	.	.	.	.	.	.	.	.	.	.	.	.
=20	=20	=20	=20	=20	=20	=20	=20	=20	=20	=20	=20	=20	=20	=20	=20	=20	=20	=20	=20	=20	=20	=20
!	!	!	!	!	!	!	!	!	!	!	!	!	!	!	!	!	!	!LO:LB:g=original	!	!	!	!
8AA/	.	.	8a/	.	8a\	.	16r	.	8AA/	-bis	.	8e\	-bis	.	4a\	-bis	.	8a\	-bis	.	4a/	8aa\
.	.	.	.	.	.	.	16a\LL	.	.	.	.	.	.	.	.	.	.	.	.	.	.	.
8r	.	.	8r	.	8r	.	16b\	.	8r	.	.	8r	.	.	.	.	.	8r	.	.	.	8r
.	.	.	.	.	.	.	16cc#\JJ	.	.	.	.	.	.	.	.	.	.	.	.	.	.	.
4r	.	.	2r	.	4r	.	16dd\LL	.	4r	.	.	4r	.	.	4r	.	.	4r	.	.	4r	4r
.	.	.	.	.	.	.	16ee\	.	.	.	.	.	.	.	.	.	.	.	.	.	.	.
.	.	.	.	.	.	.	16ff#\	.	.	.	.	.	.	.	.	.	.	.	.	.	.	.
.	.	.	.	.	.	.	16gg#X\JJ	.	.	.	.	.	.	.	.	.	.	.	.	.	.	.
4r	.	.	.	.	4r	.	16aa\LL	.	2r	.	.	2r	.	.	2r	.	.	2r	.	.	2r	2r
.	.	.	.	.	.	.	16bb\	.	.	.	.	.	.	.	.	.	.	.	.	.	.	.
.	.	.	.	.	.	.	16ccc#\	.	.	.	.	.	.	.	.	.	.	.	.	.	.	.
.	.	.	.	.	.	.	16ddd\JJ	.	.	.	.	.	.	.	.	.	.	.	.	.	.	.
8r	.	.	8r	.	8r	.	16ddd#X\LL	.	.	.	.	.	.	.	.	.	.	.	.	.	.	.
.	.	.	.	.	.	.	16eee\JJ	.	.	.	.	.	.	.	.	.	.	.	.	.	.	.
16r	.	.	16r	.	16r	.	16r	.	.	.	.	.	.	.	.	.	.	.	.	.	.	.
16D#X\|	.	.	16d#X/	.	16d#X/	.	16d#X/	.	.	.	.	.	.	.	.	.	.	.	.	.	.	.
=21	=21	=21	=21	=21	=21	=21	=21	=21	=21	=21	=21	=21	=21	=21	=21	=21	=21	=21	=21	=21	=21	=21
!	!	!	!	!	!LO:LB:g=original	!	!	!	!	!	!	!	!	!	!LO:PB:g=original	!	!	!	!	!	!	!
!	!	!	!	!	!	!	!	!	!	!	!	!	!	!	!	!	!	!	!	!	!LO:TX:a:t=P:problem:takty 21-22 zapisane repetycją	!LO:TX:a:t=P:problem:takty 21-22 zapisane repetycją
4E\|	.	.	4e/	.	4e/	.	4e/	.	4r	.	.	4r	.	.	4r	.	.	4r	.	.	4ryy	4ryy
*	*	*	*	*	*	*	*	*	*	*	*	*	*ij	*	*	*	*	*	*	*	*	*
4A\	3	.	16a/LL	.	16cc#\LL	.	4aa\	.	4A\	pro	.	4e\	pro	.	4a\	pro	.	4cc#\	pro	.	4dd\yy	4ff#\yy
.	.	.	16a/	.	16cc#\	.	.	.	.	.	.	.	.	.	.	.	.	.	.	.	.	.
.	.	.	16a/	.	16cc#\	.	.	.	.	.	.	.	.	.	.	.	.	.	.	.	.	.
.	.	.	16a/JJ	.	16cc#\JJ	.	.	.	.	.	.	.	.	.	.	.	.	.	.	.	.	.
!	!	!	!	!	!LO:TX:a:t=h	!	!	!	!	!	!	!	!	!	!	!	!	!	!	!	!	!
4E\	4	.	16a/LL	.	16b\LL	.	4b\	.	2E\	no-	.	2e\	no-	.	(4a\	no-	.	2b\	no-	.	4ee\yy	4aa\yy
.	.	.	16a/	.	16b\	.	.	.	.	.	.	.	.	.	.	.	.	.	.	.	.	.
.	.	.	16a/	.	16b\	.	.	.	.	.	.	.	.	.	.	.	.	.	.	.	.	.
.	.	.	16a/JJ	.	16b\	.	.	.	.	.	.	.	.	.	.	.	.	.	.	.	.	.
!	!	!	!	!	!	!	!	!	!	!	!	!	!	!	!LO:SIC:s=4g#:v	!	!	!	!	!	!	!
4EE/	#	.	16g#X/LL	.	16b\	.	4gg#X\	.	.	.	.	.	.	.	4g\)	.	.	.	.	.	4ee\yy	4gg#X\yy
.	.	.	16g#X/	.	16b\	.	.	.	.	.	.	.	.	.	.	.	.	.	.	.	.	.
.	.	.	16g#X/	.	16b\	.	.	.	.	.	.	.	.	.	.	.	.	.	.	.	.	.
.	.	.	16g#X/JJ	.	16b\JJ	.	.	.	.	.	.	.	.	.	.	.	.	.	.	.	.	.
*	*	*	*	*	*Xtremolo	*	*	*	*	*	*	*	*	*	*	*	*	*	*	*	*	*
=22	=22	=22	=22	=22	=22	=22	=22	=22	=22	=22	=22	=22	=22	=22	=22	=22	=22	=22	=22	=22	=22	=22
4AA/	.	.	4a/	.	4a/	.	4aa\	.	8AA/	-bis	.	8e\	-bis	.	4a\	-bis	.	4a\	-bis	.	4a/yy	8aa\yy
*	*	*	*	*	*	*	*	*	*	*	*	*	*Xij	*	*	*	*	*	*	*	*	*
.	.	.	.	.	.	.	.	.	8r	.	.	8r	.	.	.	.	.	.	.	.	.	8ryy
4r	.	.	8c#/	.	8c#/	.	16r	.	4r	.	.	4r	.	.	4r	.	.	4r	.	.	4ryy	4ryy
.	.	.	.	.	.	.	16ee\	.	.	.	.	.	.	.	.	.	.	.	.	.	.	.
.	.	.	8r	.	8r	.	16.eeT\LL	.	.	.	.	.	.	.	.	.	.	.	.	.	.	.
!	!	!	!	!	!	!	!LO:N:vis=32	!	!	!	!	!	!	!	!	!	!	!	!	!	!	!
.	.	.	.	.	.	.	64dd\LL	.	.	.	.	.	.	.	.	.	.	.	.	.	.	.
!	!	!	!	!	!	!	!LO:N:vis=32	!	!	!	!	!	!	!	!	!	!	!	!	!	!	!
.	.	.	.	.	.	.	64ee\JJJJ	.	.	.	.	.	.	.	.	.	.	.	.	.	.	.
!	!	!	!	!	!	!	!LO:TX:t=P:problem:mixed beam	!	!	!	!	!	!	!	!	!	!	!	!	!	!	!
2r	.	.	8d/	.	8d/	.	16ff#\LL	.	2r	.	.	2r	.	.	2r	.	.	2r	.	.	2ryy	2ryy
.	.	.	.	.	.	.	16d/J	.	.	.	.	.	.	.	.	.	.	.	.	.	.	.
.	.	.	8r	.	8r	.	8d/J	.	.	.	.	.	.	.	.	.	.	.	.	.	.	.
.	.	.	8B/	.	8B/	.	16r	.	.	.	.	.	.	.	.	.	.	.	.	.	.	.
.	.	.	.	.	.	.	16ff#\	.	.	.	.	.	.	.	.	.	.	.	.	.	.	.
.	.	.	8r	.	8r	.	16.ff#t\LL	.	.	.	.	.	.	.	.	.	.	.	.	.	.	.
!	!	!	!	!	!	!	!LO:N:vis=32	!	!	!	!	!	!	!	!	!	!	!	!	!	!	!
.	.	.	.	.	.	.	64ee\LL	.	.	.	.	.	.	.	.	.	.	.	.	.	.	.
!	!	!	!	!	!	!	!LO:N:vis=32	!	!	!	!	!	!	!	!	!	!	!	!	!	!	!
.	.	.	.	.	.	.	64ff#\JJJJ	.	.	.	.	.	.	.	.	.	.	.	.	.	.	.
=23	=23	=23	=23	=23	=23	=23	=23	=23	=23	=23	=23	=23	=23	=23	=23	=23	=23	=23	=23	=23	=23	=23
!	!	!	!LO:LB:g=original	!	!	!	!LO:LB:g=original	!	!	!	!	!	!	!	!	!	!	!	!	!	!	!
!	!	!	!	!	!	!	!LO:TX:t=P:problem:mixed beam	!	!	!	!	!LO:TX:a:t=3	!	!	!LO:TX:a:t=3	!	!	!LO:TX:a:t=3	!	!	!LO:TX:a:t=3	!LO:TX:a:t=3
1r	.	.	8e/	.	8e/	.	16gg#X\LL	.	0r	.	.	0r	.	.	0r	.	.	0r	.	.	0r	0r
.	.	.	.	.	.	.	16e/J	.	.	.	.	.	.	.	.	.	.	.	.	.	.	.
.	.	.	8r	.	8r	.	8e/J	.	.	.	.	.	.	.	.	.	.	.	.	.	.	.
.	.	.	8c#/	.	8c#/	.	16r	.	.	.	.	.	.	.	.	.	.	.	.	.	.	.
.	.	.	.	.	.	.	16gg#\	.	.	.	.	.	.	.	.	.	.	.	.	.	.	.
.	.	.	8r	.	8r	.	16.gg#t\LL	.	.	.	.	.	.	.	.	.	.	.	.	.	.	.
!	!	!	!	!	!	!	!LO:N:vis=32	!	!	!	!	!	!	!	!	!	!	!	!	!	!	!
.	.	.	.	.	.	.	64ff#\LL	.	.	.	.	.	.	.	.	.	.	.	.	.	.	.
!	!	!	!	!	!	!	!LO:N:vis=32	!	!	!	!	!	!	!	!	!	!	!	!	!	!	!
.	.	.	.	.	.	.	64gg#\JJJJ	.	.	.	.	.	.	.	.	.	.	.	.	.	.	.
!	!	!	!	!	!	!	!LO:TX:t=P:problem:mixed beam	!	!	!	!	!	!	!	!	!	!	!	!	!	!	!
.	.	.	8f#/	.	8f#/	.	16aa\LL	.	.	.	.	.	.	.	.	.	.	.	.	.	.	.
.	.	.	.	.	.	.	16f#/J	.	.	.	.	.	.	.	.	.	.	.	.	.	.	.
.	.	.	8r	.	8r	.	8f#/J	.	.	.	.	.	.	.	.	.	.	.	.	.	.	.
.	.	.	8d/	.	8d/	.	16r	.	.	.	.	.	.	.	.	.	.	.	.	.	.	.
.	.	.	.	.	.	.	16aa\	.	.	.	.	.	.	.	.	.	.	.	.	.	.	.
.	.	.	8r	.	8r	.	16.aaT\LL	.	.	.	.	.	.	.	.	.	.	.	.	.	.	.
!	!	!	!	!	!	!	!LO:N:vis=32	!	!	!	!	!	!	!	!	!	!	!	!	!	!	!
.	.	.	.	.	.	.	64gg#X\LL	.	.	.	.	.	.	.	.	.	.	.	.	.	.	.
!	!	!	!	!	!	!	!LO:N:vis=32	!	!	!	!	!	!	!	!	!	!	!	!	!	!	!
.	.	.	.	.	.	.	64aa\JJJJ	.	.	.	.	.	.	.	.	.	.	.	.	.	.	.
=24	=24	=24	=24	=24	=24	=24	=24	=24	=24	=24	=24	=24	=24	=24	=24	=24	=24	=24	=24	=24	=24	=24
!	!	!	!	!	!	!	!LO:TX:t=P:problem:mixed beam	!	!	!	!	!	!	!	!	!	!	!	!	!	!	!
2r	.	.	8g#X/	.	8g#X/	.	16bb\LL	.	.	.	.	.	.	.	.	.	.	.	.	.	.	.
.	.	.	.	.	.	.	16g#X/J	.	.	.	.	.	.	.	.	.	.	.	.	.	.	.
.	.	.	8r	.	8r	.	8g#/J	.	.	.	.	.	.	.	.	.	.	.	.	.	.	.
.	.	.	8e/	.	8e/	.	16r	.	.	.	.	.	.	.	.	.	.	.	.	.	.	.
.	.	.	.	.	.	.	16bb\	.	.	.	.	.	.	.	.	.	.	.	.	.	.	.
.	.	.	8r	.	8r	.	16.bbT\LL	.	.	.	.	.	.	.	.	.	.	.	.	.	.	.
!	!	!	!	!	!	!	!LO:N:vis=32	!	!	!	!	!	!	!	!	!	!	!	!	!	!	!
.	.	.	.	.	.	.	64aa\LL	.	.	.	.	.	.	.	.	.	.	.	.	.	.	.
!	!	!	!	!	!	!	!LO:N:vis=32	!	!	!	!	!	!	!	!	!	!	!	!	!	!	!
.	.	.	.	.	.	.	64bb\JJJJ	.	.	.	.	.	.	.	.	.	.	.	.	.	.	.
!LO:LB:g=original	!	!	!	!	!	!	!	!	!	!	!	!	!	!	!	!	!	!	!	!	!	!
!LO:TX:a:t=Pedale	!	!	!	!	!	!	!	!	!	!	!	!	!	!	!	!	!	!	!	!	!	!
8A\L	.	.	8a/L|	.	8a/L|	.	24ccc#\LL	.	.	.	.	.	.	.	.	.	.	.	.	.	.	.
.	.	.	.	.	.	.	24bb\	.	.	.	.	.	.	.	.	.	.	.	.	.	.	.
.	.	.	.	.	.	.	24aa\JJ	.	.	.	.	.	.	.	.	.	.	.	.	.	.	.
8E\	.	.	8g#/|	.	8b/|	.	24ddd\LL	.	.	.	.	.	.	.	.	.	.	.	.	.	.	.
.	.	.	.	.	.	.	24ccc#\	.	.	.	.	.	.	.	.	.	.	.	.	.	.	.
.	.	.	.	.	.	.	24bb\JJ	.	.	.	.	.	.	.	.	.	.	.	.	.	.	.
8A\	.	.	8a/|	.	8a/|	.	24ccc#\LL	.	.	.	.	.	.	.	.	.	.	.	.	.	.	.
.	.	.	.	.	.	.	24bb\	.	.	.	.	.	.	.	.	.	.	.	.	.	.	.
.	.	.	.	.	.	.	24aa\JJ	.	.	.	.	.	.	.	.	.	.	.	.	.	.	.
8E\J	.	.	8g#/J|	.	8b/J|	.	24ddd\LL	.	.	.	.	.	.	.	.	.	.	.	.	.	.	.
.	.	.	.	.	.	.	24ccc#\	.	.	.	.	.	.	.	.	.	.	.	.	.	.	.
.	.	.	.	.	.	.	24bb\JJ	.	.	.	.	.	.	.	.	.	.	.	.	.	.	.
=25	=25	=25	=25	=25	=25	=25	=25	=25	=25	=25	=25	=25	=25	=25	=25	=25	=25	=25	=25	=25	=25	=25
*	*	*	*	*	*	*	*^	*	*	*	*	*	*	*	*	*	*	*	*	*	*	*
4A\	.	.	4a/	.	4a/	.	24ccc#\LL	4rcyy	.	1r	.	.	1r	.	.	1r	.	.	1r	.	.	1r	1r
.	.	.	.	.	.	.	24aa\	.	.	.	.	.	.	.	.	.	.	.	.	.	.	.	.
.	.	.	.	.	.	.	24ccc#\JJ	.	.	.	.	.	.	.	.	.	.	.	.	.	.	.	.
.	.	.	.	.	.	.	24eee\LL	.	.	.	.	.	.	.	.	.	.	.	.	.	.	.	.
.	.	.	.	.	.	.	24ccc#\	.	.	.	.	.	.	.	.	.	.	.	.	.	.	.	.
.	.	.	.	.	.	.	24eee\JJ	.	.	.	.	.	.	.	.	.	.	.	.	.	.	.	.
!	!	!	!	!	!	!	!LO:LB:g=original	!LO:LB:g=original	!	!	!	!	!	!	!	!	!	!	!	!	!	!	!
4r	.	.	4r	.	4r	.	8raayy	8aaa\L	.	.	.	.	.	.	.	.	.	.	.	.	.	.	.
.	.	.	.	.	.	.	8ee/	8cc#\J	.	.	.	.	.	.	.	.	.	.	.	.	.	.	.
2r	.	.	8r	.	8r	.	8ff#/L	4dd\	.	.	.	.	.	.	.	.	.	.	.	.	.	.	.
.	.	.	8d/L	.	8d/L	.	8bb/J	.	.	.	.	.	.	.	.	.	.	.	.	.	.	.	.
.	.	.	8e/	.	8e/	.	16bb/LL	8cc#\L	.	.	.	.	.	.	.	.	.	.	.	.	.	.	.
.	.	.	.	.	.	.	16aa/	.	.	.	.	.	.	.	.	.	.	.	.	.	.	.	.
.	.	.	8e/J	.	8e/J	.	16aa/	8b\J	.	.	.	.	.	.	.	.	.	.	.	.	.	.	.
.	.	.	.	.	.	.	16gg#X/JJ	.	.	.	.	.	.	.	.	.	.	.	.	.	.	.	.
*	*	*	*	*	*	*	*v	*v	*	*	*	*	*	*	*	*	*	*	*	*	*	*	*
=26	=26	=26	=26	=26	=26	=26	=26	=26	=26	=26	=26	=26	=26	=26	=26	=26	=26	=26	=26	=26	=26	=26
!	!	!	!	!	!	!	!	!	!LO:LB:g=original	!	!	!	!	!	!	!	!	!	!	!	!	!
!LO:TX:a:t=Tutti	!	!	!	!	!	!	!	!	!	!	!	!	!	!	!	!	!	!	!	!	!	!
4A\	.	.	4a/	.	4cc#\	.	8.aa\L	.	4A\	Re-	.	4c#\	Re-	.	4a\	Re-	.	4ee\	Re-	.	4a/	4ee\
.	.	.	.	.	.	.	16ee\Jk	.	.	.	.	.	.	.	.	.	.	.	.	.	.	.
4E\	#	.	4g#X/	.	4b\	.	16ee\LL	.	4E\	-gi-	.	4B\	-gi-	.	4g#X\	-gi-	.	4ee\	-gi-	.	4ee\	4ee\
.	.	.	.	.	.	.	16dd\	.	.	.	.	.	.	.	.	.	.	.	.	.	.	.
.	.	.	.	.	.	.	16cc#\	.	.	.	.	.	.	.	.	.	.	.	.	.	.	.
.	.	.	.	.	.	.	16b\JJ	.	.	.	.	.	.	.	.	.	.	.	.	.	.	.
!	!	!	!LO:TX:a:t=a	!	!	!	!	!	!	!	!	!	!	!	!	!	!	!	!	!	!	!
4AA/	.	.	4a 4e/	.	4cc#\	.	8a\L	.	4AA/	-na	.	4c#\	-na	.	4a\	-na	.	4ee\	-na	.	4a/	4ee\
.	.	.	.	.	.	.	(48b\LL	.	.	.	.	.	.	.	.	.	.	.	.	.	.	.
.	.	.	.	.	.	.	48cc#\	.	.	.	.	.	.	.	.	.	.	.	.	.	.	.
.	.	.	.	.	.	.	48dd\	.	.	.	.	.	.	.	.	.	.	.	.	.	.	.
.	.	.	.	.	.	.	48ee\	.	.	.	.	.	.	.	.	.	.	.	.	.	.	.
.	.	.	.	.	.	.	48ff#\	.	.	.	.	.	.	.	.	.	.	.	.	.	.	.
.	.	.	.	.	.	.	48gg#X\JJJ)	.	.	.	.	.	.	.	.	.	.	.	.	.	.	.
!	!	!	!	!	!	!	!	!	!	!	!	!	!	!	!	!	!	!	!	!	!	!LO:LB:g=original
4r	.	.	8r	.	8r	.	8aa\L	.	4r	.	.	4r	.	.	4r	.	.	4r	.	.	4r	4r
.	.	.	8c#/	.	8c#/	.	8ee\J	.	.	.	.	.	.	.	.	.	.	.	.	.	.	.
=27	=27	=27	=27	=27	=27	=27	=27	=27	=27	=27	=27	=27	=27	=27	=27	=27	=27	=27	=27	=27	=27	=27
!	!	!	!	!	!	!	!	!	!	!	!	!	!	!	!	!	!	!	!	!	!LO:LB:g=original	!
!	!	!	!	!	!	!	!LO:TX:t=P:problem:mixed beam	!	!	!	!	!LO:TX:a:t=1	!	!	!	!	!	!	!	!	!LO:TX:a:t=1	!
1r	.	.	8d/L|	.	8d/L	.	24ff#\LL	.	1r	.	.	1r	.	.	1r	.	.	1r	.	.	1r	1r
.	.	.	.	.	.	.	24a/	.	.	.	.	.	.	.	.	.	.	.	.	.	.	.
.	.	.	.	.	.	.	24a/JJ	.	.	.	.	.	.	.	.	.	.	.	.	.	.	.
.	.	.	8c#/|	.	8c#/	.	24ee\LL	.	.	.	.	.	.	.	.	.	.	.	.	.	.	.
.	.	.	.	.	.	.	24a\	.	.	.	.	.	.	.	.	.	.	.	.	.	.	.
.	.	.	.	.	.	.	24a\JJ	.	.	.	.	.	.	.	.	.	.	.	.	.	.	.
.	.	.	8d/|	.	8d/	.	24ff#\LL	.	.	.	.	.	.	.	.	.	.	.	.	.	.	.
.	.	.	.	.	.	.	24a\	.	.	.	.	.	.	.	.	.	.	.	.	.	.	.
.	.	.	.	.	.	.	24a\JJ	.	.	.	.	.	.	.	.	.	.	.	.	.	.	.
.	.	.	8c#/J|	.	8c#/J	.	24ee\LL	.	.	.	.	.	.	.	.	.	.	.	.	.	.	.
.	.	.	.	.	.	.	24a\	.	.	.	.	.	.	.	.	.	.	.	.	.	.	.
.	.	.	.	.	.	.	24a\JJ	.	.	.	.	.	.	.	.	.	.	.	.	.	.	.
.	.	.	8d/L	.	8d/L	.	16ff#\LL	.	.	.	.	.	.	.	.	.	.	.	.	.	.	.
.	.	.	.	.	.	.	16aa\	.	.	.	.	.	.	.	.	.	.	.	.	.	.	.
.	.	.	8c#/	.	8c#/	.	16ee\	.	.	.	.	.	.	.	.	.	.	.	.	.	.	.
.	.	.	.	.	.	.	16aa\JJ	.	.	.	.	.	.	.	.	.	.	.	.	.	.	.
.	.	.	8B/	.	8B/	.	4dd\	.	.	.	.	.	.	.	.	.	.	.	.	.	.	.
.	.	.	8e/J	.	8e/J	.	.	.	.	.	.	.	.	.	.	.	.	.	.	.	.	.
=28	=28	=28	=28	=28	=28	=28	=28	=28	=28	=28	=28	=28	=28	=28	=28	=28	=28	=28	=28	=28	=28	=28
!	!	!	!	!	!LO:LB:g=original	!	!	!	!	!	!	!	!	!	!	!	!	!	!	!	!	!
*	*	*	*	*	*	*	*	*	*	*ij	*	*	*ij	*	*	*ij	*	*	*ij	*	*	*
4A\	.	.	4a/	.	4a/	.	4cc#\	.	4A\	Re-	.	4c#\	Re-	.	4a\	Re-	.	4ee\	Re-	.	4a/	4ee\
!	!	!	!	!	!	!	!	!	!	!	!	!	!	!	!LO:SIC:s=4g#:v	!	!	!	!	!	!	!
4E\	#	.	4g#X/	.	4g#X/	.	4b\	.	4E\	-gi-	.	4B\	-gi-	.	4g\	-gi-	.	4ee\	-gi-	.	4ee\	4ee\
!	!	!	!LO:LB:g=original	!	!	!	!LO:LB:g=original	!	!	!	!	!	!	!	!	!	!	!	!	!	!	!
!	!	!	!LO:TX:a:t=a	!	!	!	!	!	!	!	!	!	!	!	!	!	!	!	!	!	!	!
4AA/	.	.	4a 4e/	.	4a/	.	8a\L	.	4AA/	-na	.	4c#\	-na	.	4a\	-na	.	4ee\	-na	.	4a/	4ee\
*	*	*	*	*	*	*	*	*	*	*	*	*	*Xij	*	*	*Xij	*	*	*Xij	*	*	*
.	.	.	.	.	.	.	(48b\LL	.	.	.	.	.	.	.	.	.	.	.	.	.	.	.
.	.	.	.	.	.	.	48cc#\	.	.	.	.	.	.	.	.	.	.	.	.	.	.	.
.	.	.	.	.	.	.	48dd\	.	.	.	.	.	.	.	.	.	.	.	.	.	.	.
.	.	.	.	.	.	.	48ee\	.	.	.	.	.	.	.	.	.	.	.	.	.	.	.
.	.	.	.	.	.	.	48ff#\	.	.	.	.	.	.	.	.	.	.	.	.	.	.	.
.	.	.	.	.	.	.	48gg#X\JJJ)	.	.	.	.	.	.	.	.	.	.	.	.	.	.	.
4r	.	.	8r	.	8r	.	8aa\L	.	4r	.	.	4r	.	.	4r	.	.	4r	.	.	4r	4r
.	.	.	8c#/	.	8c#/	.	8ee\J	.	.	.	.	.	.	.	.	.	.	.	.	.	.	.
=29	=29	=29	=29	=29	=29	=29	=29	=29	=29	=29	=29	=29	=29	=29	=29	=29	=29	=29	=29	=29	=29	=29
!	!	!	!	!	!	!	!	!	!LO:TX:a:t=1	!	!	!LO:TX:a:t=1	!	!	!LO:TX:a:t=1	!	!	!	!	!	!LO:TX:a:t=1	!
1r	.	.	8d/L|	.	8d/L	.	24ff#\LL	.	1r	.	.	1r	.	.	1r	.	.	1r	.	.	1r	1r
.	.	.	.	.	.	.	24a\	.	.	.	.	.	.	.	.	.	.	.	.	.	.	.
.	.	.	.	.	.	.	24a\JJ	.	.	.	.	.	.	.	.	.	.	.	.	.	.	.
.	.	.	8c#/|	.	8c#/	.	24ee\LL	.	.	.	.	.	.	.	.	.	.	.	.	.	.	.
.	.	.	.	.	.	.	24a\	.	.	.	.	.	.	.	.	.	.	.	.	.	.	.
.	.	.	.	.	.	.	24a\JJ	.	.	.	.	.	.	.	.	.	.	.	.	.	.	.
.	.	.	8d/|	.	8d/	.	24ff#\LL	.	.	.	.	.	.	.	.	.	.	.	.	.	.	.
.	.	.	.	.	.	.	24a\	.	.	.	.	.	.	.	.	.	.	.	.	.	.	.
.	.	.	.	.	.	.	24a\JJ	.	.	.	.	.	.	.	.	.	.	.	.	.	.	.
.	.	.	8c#/J|	.	8c#/J	.	24ee\LL	.	.	.	.	.	.	.	.	.	.	.	.	.	.	.
.	.	.	.	.	.	.	24a\	.	.	.	.	.	.	.	.	.	.	.	.	.	.	.
.	.	.	.	.	.	.	24a\JJ	.	.	.	.	.	.	.	.	.	.	.	.	.	.	.
.	.	.	8d/L	.	8d/L	.	16ff#\LL	.	.	.	.	.	.	.	.	.	.	.	.	.	.	.
.	.	.	.	.	.	.	16aa\	.	.	.	.	.	.	.	.	.	.	.	.	.	.	.
.	.	.	8c#/	.	8c#/	.	16ee\	.	.	.	.	.	.	.	.	.	.	.	.	.	.	.
.	.	.	.	.	.	.	16aa\JJ	.	.	.	.	.	.	.	.	.	.	.	.	.	.	.
.	.	.	8B/	.	8B/	.	4dd\	.	.	.	.	.	.	.	.	.	.	.	.	.	.	.
.	.	.	8e/J	.	8e/J	.	.	.	.	.	.	.	.	.	.	.	.	.	.	.	.	.
=30	=30	=30	=30	=30	=30	=30	=30	=30	=30	=30	=30	=30	=30	=30	=30	=30	=30	=30	=30	=30	=30	=30
!	!	!	!	!	!	!	!	!	!	!	!	!LO:PB:g=original	!	!	!	!	!	!	!	!	!	!
!	!	!	!LO:TX:t=P:problem:mixed beam	!	!LO:TX:t=P:problem:mixed beam	!	!	!	!	!	!	!	!	!	!	!	!	!	!	!	!	!
8r	.	.	16A/LL	.	16c#/LL	.	16cc#\LL	.	8r	.	.	8r	.	.	8r	.	.	8r	.	.	4a/	4ee\
.	.	.	16cc#\	.	16ee\	.	16ee\	.	.	.	.	.	.	.	.	.	.	.	.	.	.	.
8A\L	.	.	16cc#\	.	16ee\	.	16ee\	.	8A\	Re-	.	8c#\	Re-	.	8a\	Re-	.	8ee\	Re-	.	.	.
.	.	.	16cc#\JJ	.	16ee\JJ	.	16ee\JJ	.	.	.	.	.	.	.	.	.	.	.	.	.	.	.
*	*	*	*4\right	*	*	*	*	*	*	*	*	*	*	*	*	*	*	*	*	*	*	*
*	*	*	*	*	*tremolo	*	*tremolo	*	*	*	*	*	*	*	*	*	*	*	*	*	*	*
8Gn\	4 2	.	16cc#\LL	.	16ee\LL	.	16ee\LL	.	8G\	-gi-	.	8c#\	-gi-	.	8a\	-gi-	.	8ee\	-gi-	.	4r	4r
.	.	.	16cc#\	.	16ee\	.	16ee\	.	.	.	.	.	.	.	.	.	.	.	.	.	.	.
8G\J	.	.	16cc#\	.	16ee\	.	16ee\	.	8G\	-na	.	8c#\	-na	.	8a\	-na	.	8ee\	-na	.	.	.
.	.	.	16cc#\JJ	.	16ee\JJ	.	16ee\JJ	.	.	.	.	.	.	.	.	.	.	.	.	.	.	.
*	*	*	*Xtremolo	*	*Xtremolo	*	*Xtremolo	*	*	*Xij	*	*	*	*	*	*	*	*	*	*	*	*
!	!	!	!	!	!	!	!	!	!	!	!	!	!	!	!LO:LB:g=original	!	!	!	!	!	!	!
4F#\	7 #	.	8cc#\L	.	8ee\L	.	8ee\L	.	8.F#\	Mar-	.	8.c#\	Mar-	.	8.a#X\	Mar-	.	8.ee\	Mar-	.	2r	2r
*	*	*	*32\right	*	*	*	*	*	*	*	*	*	*	*	*	*	*	*	*	*	*	*
.	.	.	(32ee\LL	.	32ccc#\LL	.	32ccc#\LL	.	.	.	.	.	.	.	.	.	.	.	.	.	.	.
.	.	.	32dd\	.	32bb\	.	32bb\	.	.	.	.	.	.	.	.	.	.	.	.	.	.	.
!	!	!	!	!	!	!	!	!	!LO:SIC:l:s=ty-:v	!	!	!	!	!	!	!	!	!	!	!	!	!
.	.	.	32ee\	.	32ccc#\	.	32ccc#\	.	16F#\	-ti-	.	16c#\	-ty-	.	16a#\	-ty-	.	16ee\	-tÿ-	.	.	.
.	.	.	32ff#\JJJ)	.	32ddd\JJJ	.	32ddd\JJJ	.	.	.	.	.	.	.	.	.	.	.	.	.	.	.
4F#\	.	.	16ee\LL	.	16ccc#\LL	.	16ccc#\LL	.	4F#\	-ru(m)	.	8c#\	-rum	.	4a#\	-rum	.	4ee\	-rum	.	.	.
.	.	.	16cc#\	.	16ee\	.	16ee\	.	.	.	.	.	.	.	.	.	.	.	.	.	.	.
.	.	.	16ee\	.	16ccc#\	.	16ccc#\	.	.	.	.	8r	.	.	.	.	.	.	.	.	.	.
.	.	.	16cc#\JJ	.	16ee\JJ	.	16ee\JJ	.	.	.	.	.	.	.	.	.	.	.	.	.	.	.
=31	=31	=31	=31	=31	=31	=31	=31	=31	=31	=31	=31	=31	=31	=31	=31	=31	=31	=31	=31	=31	=31	=31
!	!	!	!	!	!	!	!	!	!	!	!	!	!	!	!	!	!	!LO:LB:g=original	!	!	!	!
*	*	*	*	*	*tremolo	*	*tremolo	*	*	*	*	*	*	*	*	*	*	*	*	*	*	*
*	*	*	*tremolo	*	*	*	*2\right	*	*	*	*	*	*	*	*	*	*	*	*	*	*	*
8r	.	.	16b\LL	.	16dd\LL	.	16dd\LL	.	8r	.	.	8r	.	.	8r	.	.	8r	.	.	4f#/	4f#/
.	.	.	16b\	.	16dd\	.	16dd\	.	.	.	.	.	.	.	.	.	.	.	.	.	.	.
8BB/L	4	.	16b\	.	16dd\	.	16dd\	.	8BB/	Re-	.	8B\	Re-	.	8f#\	Re-	.	8dd\	Re-	.	.	.
.	.	.	16b\	.	16dd\	.	16dd\	.	.	.	.	.	.	.	.	.	.	.	.	.	.	.
8D/	.	.	16b\	.	16dd\	.	16dd\	.	8D\	-gi-	.	8B\	-gi-	.	8f#\	-gi-	.	8dd\	-gi-	.	4r	4r
.	.	.	16b\	.	16dd\	.	16dd\	.	.	.	.	.	.	.	.	.	.	.	.	.	.	.
8F#/J	.	.	16b\	.	16dd\	.	16dd\	.	8F#\	-na	.	8B\	-na	.	8f#\	-na	.	8dd\	-na	.	.	.
.	.	.	16b\JJ	.	16dd\JJ	.	16dd\JJ	.	.	.	.	.	.	.	.	.	.	.	.	.	.	.
*	*	*	*Xtremolo	*	*Xtremolo	*	*Xtremolo	*	*	*	*	*	*	*	*	*	*	*	*	*	*	*
4B\	.	.	8b\L	.	8dd\L	.	8dd\L	.	8.B\	Vir-	.	8.B\	Vir-	.	8.f#\	Vir-	.	8.dd\	Vir-	.	8f#/L	8f#/L
.	.	.	(32dd\LL	.	32bb\LL	.	32bb\LL	.	.	.	.	.	.	.	.	.	.	.	.	.	16f#/L	16f#/L
.	.	.	32cc#\	.	32aa#X\	.	32aa#X\	.	.	.	.	.	.	.	.	.	.	.	.	.	.	.
.	.	.	32dd\	.	32bb\	.	32bb\	.	16BB/	-gi-	.	16B\	-gi-	.	16f#\	-gi-	.	16dd\	-gi-	.	16f#/JJ	16f#/JJ
.	.	.	32ee\JJJ)	.	32ccc#\JJJ	.	32ccc#\JJJ	.	.	.	.	.	.	.	.	.	.	.	.	.	.	.
!	!	!	!	!	!	!	!LO:LB:g=original	!	!LO:LB:g=original	!	!	!	!	!	!	!	!	!	!	!	!	!
4BB/	.	.	16dd\LL	.	16bb\LL	.	16bb\LL	.	4BB/	-num	.	4B\	-num	.	4f#\	-num	.	8dd\	-num	.	8f#/L	8f#/L
.	.	.	16b\	.	16dd\	.	16dd\	.	.	.	.	.	.	.	.	.	.	.	.	.	.	.
.	.	.	16dd\	.	16bb\	.	16bb\	.	.	.	.	.	.	.	.	.	.	8r	.	.	8f#/J	8f#/J
.	.	.	16b\JJ	.	16dd\JJ	.	16dd\JJ	.	.	.	.	.	.	.	.	.	.	.	.	.	.	.
=32	=32	=32	=32	=32	=32	=32	=32	=32	=32	=32	=32	=32	=32	=32	=32	=32	=32	=32	=32	=32	=32	=32
*	*	*	*tremolo	*	*tremolo	*	*tremolo	*	*	*	*	*	*	*	*	*	*	*	*	*	*	*
8r	.	.	16cc#\LL	.	16ee\LL	.	16ee\LL	.	8r	.	.	8r	.	.	8r	.	.	8r	.	.	4f#/	8f#/L
.	.	.	16cc#\	.	16ee\	.	16ee\	.	.	.	.	.	.	.	.	.	.	.	.	.	.	.
8F#\L	#	.	16cc#\	.	16ee\	.	16ee\	.	8F#\	o-	.	8c#\	o-	.	8a#X\	O-	.	8ee\	o-	.	.	8f#/J
.	.	.	16cc#\	.	16ee\	.	16ee\	.	.	.	.	.	.	.	.	.	.	.	.	.	.	.
8A#X\	.	.	16cc#\	.	16ee\	.	16ee\	.	8A#X\	-ra	.	8c#\	-ra	.	8a#\	-ra	.	8ee\	-ra	.	4r	4r
.	.	.	16cc#\	.	16ee\	.	16ee\	.	.	.	.	.	.	.	.	.	.	.	.	.	.	.
8c#\J	.	.	16cc#\	.	16ee\	.	16ee\	.	8c#\	pro	.	8c#\	pro	.	8a#\	pro	.	8ee\	pro	.	.	.
.	.	.	16cc#\JJ	.	16ee\JJ	.	16ee\JJ	.	.	.	.	.	.	.	.	.	.	.	.	.	.	.
*	*	*	*Xtremolo	*	*Xtremolo	*	*Xtremolo	*	*	*	*	*	*	*	*	*	*	*	*	*	*	*
4f#\	.	.	8cc#\L	.	8ee\L	.	8ee\L	.	4f#\	no-	.	4c#\	no-	.	4a#\	no-	.	4ee\	no-	.	8f#/L	8f#/L
.	.	.	(32ee\LL	.	32ccc#\LL	.	32ccc#\LL	.	.	.	.	.	.	.	.	.	.	.	.	.	16f#/L	16f#/L
.	.	.	32dd\	.	32bb\	.	32bb\	.	.	.	.	.	.	.	.	.	.	.	.	.	.	.
.	.	.	32ee\	.	32ccc#\	.	32ccc#\	.	.	.	.	.	.	.	.	.	.	.	.	.	16f#/JJ	16f#/JJ
.	.	.	32ff#\JJJ)	.	32ddd\JJJ	.	32ddd\JJJ	.	.	.	.	.	.	.	.	.	.	.	.	.	.	.
!	!	!	!LO:LB:g=original	!	!	!	!	!	!	!	!	!	!	!	!	!	!	!	!	!	!	!
4F#\	.	.	16ee\LL	.	16ccc#\LL	.	16ccc#\LL	.	8F#\	-bis	.	8c#\	-bis	.	8a#\	-bis	.	8ee\	-bis	.	8f#/L	8f#/L
.	.	.	16cc#\	.	16ee\	.	16ee\	.	.	.	.	.	.	.	.	.	.	.	.	.	.	.
.	.	.	16ee\	.	16ccc#\	.	16ccc#\	.	8F#\	o-	.	8c#\	o-	.	8a#\	pro	.	8ee\	pro	.	8f#/J	8f#/J
.	.	.	16cc#\JJ	.	16ee\JJ	.	16ee\JJ	.	.	.	.	.	.	.	.	.	.	.	.	.	.	.
=33	=33	=33	=33	=33	=33	=33	=33	=33	=33	=33	=33	=33	=33	=33	=33	=33	=33	=33	=33	=33	=33	=33
!LO:LB:g=original	!	!	!	!	!LO:LB:g=original	!	!	!	!	!	!	!	!	!	!	!	!	!	!	!	!	!
*^	*	*	*	*	*	*	*	*	*	*	*	*	*	*	*	*	*	*	*	*	*	*
!	!	!	!	!LO:TX:t=P:problem:mixed beam	!	!	!	!	!	!	!	!	!	!	!	!	!	!	!	!	!	!	!
8B\L	2rEEyy	n	.	16b\KL	.	8dd\L	.	8dd\L	.	8B\L	.	.	8B\L	.	.	2f#\	no-	.	8dd\L	no-	.	8f#/	8f#/
.	.	.	.	8f#/	.	.	.	.	.	.	.	.	.	.	.	.	.	.	.	.	.	.	.
8F#\	.	#	.	.	.	16ee\L	.	16ee\L	.	8F#\	.	.	16c#\L	.	.	.	.	.	16ee\L	.	.	8r	8r
.	.	.	.	8f#/	.	16cc#\JJ	.	16cc#\JJ	.	.	.	.	16A#X\JJ	.	.	.	.	.	16cc#\JJ	.	.	.	.
!	!	!	!	!	!	!	!	!	!	!	!	!	!LO:LB:g=original	!	!	!	!	!	!	!	!	!	!
8B\	.	n	.	.	.	8dd\L	.	8dd\L	.	8B\	.	.	8B\L	.	.	.	.	.	8dd\L	.	.	8f#/	8f#/
.	.	.	.	8f#/	.	.	.	.	.	.	.	.	.	.	.	.	.	.	.	.	.	.	.
8F#\J	.	#	.	.	.	16ee\L	.	16ee\L	.	8F#\J	.	.	16c#\L	.	.	.	.	.	16ee\L	.	.	8r	8r
.	.	.	.	16f#/Jk	.	16cc#\JJ	.	16cc#\JJ	.	.	.	.	16A#\JJ	.	.	.	.	.	16cc#\JJ	.	.	.	.
8B\	8rEEyy	#	.	8f#/	.	8dd\	.	8dd\	.	8B\	-ra	.	8B\	-ra	.	8f#\	-bis	.	8dd\	-bis	.	8f#/	8f#/
*clefC1	*	*	*	*	*	*	*	*	*	*	*	*	*	*	*	*	*	*	*	*	*	*	*
4cc#X/	4e\	.	.	4g/	.	4ccn\	.	4ccn\	.	8r	.	.	8e\	o-	.	8gn\	O-	.	8ccn\	o-	.	8r	8r
.	.	.	.	.	.	.	.	.	.	4r	.	.	8e\	-ra	.	8g\	-ra	.	8cc\	-ra	.	4r	4r
8b/	8d\	.	.	8g/	.	8b\	.	8b\	.	.	.	.	8e\	pro	.	8g\	pro	.	8b\	pro	.	.	.
=34	=34	=34	=34	=34	=34	=34	=34	=34	=34	=34	=34	=34	=34	=34	=34	=34	=34	=34	=34	=34	=34	=34	=34
!	!	!	!	!	!	!	!	!	!	!	!	!	!	!	!	!LO:LB:g=original	!	!	!	!	!	!	!
!	!	!	!	!LO:TX:t=P:problem:mixed beam	!	!	!	!LO:TX:t=P:problem:mixed beam	!	!	!	!	!	!	!	!	!	!	!	!	!	!	!
8a#X/	8c#\	.	.	16c#/LL	.	16a#X\LL	.	16a#X/LL	.	8r	.	.	2c#\	no-	.	2f#\	no-	.	2a#X\	no-	.	2r	2r
.	.	.	.	16cc#\	.	16aa#X\	.	16aa#X\	.	.	.	.	.	.	.	.	.	.	.	.	.	.	.
*clefF4	*	*	*	*	*	*	*	*	*	*	*	*	*	*	*	*	*	*	*	*	*	*	*
8G\L	8rEEyy	-3_ #4_	.	16cc#\	.	16aa#\	.	16aa#\	.	8G\	o-	.	.	.	.	.	.	.	.	.	.	.	.
.	.	.	.	16cc#\JJ	.	16aa#\JJ	.	16aa#\JJ	.	.	.	.	.	.	.	.	.	.	.	.	.	.	.
*	*	*	*	*tremolo	*	*tremolo	*	*tremolo	*	*	*	*	*	*	*	*	*	*	*	*	*	*	*
8F#\	4rEEyy	.	.	16cc#\LL	.	16aa#\LL	.	16aa#\LL	.	8F#\	-ra	.	.	.	.	.	.	.	.	.	.	.	.
.	.	.	.	16cc#\	.	16aa#\	.	16aa#\	.	.	.	.	.	.	.	.	.	.	.	.	.	.	.
8E\J	.	.	.	16cc#\	.	16aa#\	.	16aa#\	.	8E\	pro	.	.	.	.	.	.	.	.	.	.	.	.
.	.	.	.	16cc#\JJ	.	16aa#\JJ	.	16aa#\JJ	.	.	.	.	.	.	.	.	.	.	.	.	.	.	.
*	*	*	*	*	*	*	*	*Xtremolo	*	*	*	*	*	*	*	*	*	*	*	*	*	*	*
!LO:TX:t=P:problem:mixed beam	!	!	!	!	!	!	!	!	!	!	!	!	!	!	!	!	!	!	!	!	!	!	!
8D\L	2rEEyy	6	.	8dd\L	.	16bb\LL	.	16bb\LL	.	8D\L	no-	.	8d\	-bis	.	8f#\	-bis	.	8b\	-bis,	.	8f#/L	8f#/L
.	.	.	.	.	.	16ff#\	.	16ff#\	.	.	.	.	.	.	.	.	.	.	.	.	.	.	.
!	!	!	!	!	!	!	!	!	!	!	!	!	!	!	!	!	!	!	!LO:LB:g=original	!	!	!	!
8E\	.	.	.	16ee\L	.	16gg\	.	16gg\	.	8E\J	.	.	8e\	pro	.	8g\	pro	.	8cc#\	pro	.	16f#/L	16f#/L
.	.	.	.	16cc#\JJ	.	16ee\JJ	.	16ee\JJ	.	.	.	.	.	.	.	.	.	.	.	.	.	16f#/JJ	16f#/JJ
8F#\	.	4	.	8b\L	.	8dd\L	.	8dd\L	.	4F#\	.	.	8d\L	no-	.	4f#\	no-	.	8b\L	no-	.	16f#/LL	16f#/LL
.	.	.	.	.	.	.	.	.	.	.	.	.	.	.	.	.	.	.	.	.	.	16f#/	16f#/
8FF#/J	.	3	.	8a#X\J	.	8cc#\J	.	8cc#\J	.	.	.	.	8c#\J	.	.	.	.	.	8a#\J	.	.	16f#/	16f#/
.	.	.	.	.	.	.	.	.	.	.	.	.	.	.	.	.	.	.	.	.	.	16f#/JJ	16f#/JJ
*v	*v	*	*	*	*	*	*	*	*	*	*	*	*	*	*	*	*	*	*	*	*	*	*
=35	=35	=35	=35	=35	=35	=35	=35	=35	=35	=35	=35	=35	=35	=35	=35	=35	=35	=35	=35	=35	=35	=35
!	!	!	!	!	!	!	!	!	!	!	!	!	!	!	!	!	!	!	!	!	!LO:LB:g=original	!
4BB/	n	.	4b/	.	4b\	.	4b\	.	4BB/	-bis	.	4d\	-bis	.	4f#\	-bis	.	4b\	-bis,	.	4f#/	4f#/
4r	.	.	8b/L	.	8b\L	.	16r	.	4r	.	.	4r	.	.	4r	.	.	4r	.	.	4r	4r
.	.	.	.	.	.	.	16dd#X\	.	.	.	.	.	.	.	.	.	.	.	.	.	.	.
.	.	.	8a/J	.	8a\J	.	16.dd#t\LL	.	.	.	.	.	.	.	.	.	.	.	.	.	.	.
.	.	.	.	.	.	.	64cc#\LL	.	.	.	.	.	.	.	.	.	.	.	.	.	.	.
.	.	.	.	.	.	.	64dd#\JJJJ	.	.	.	.	.	.	.	.	.	.	.	.	.	.	.
2r	.	.	8g/L	.	8gn/L	.	16ee\LL	.	2r	.	.	2r	.	.	2r	.	.	2r	.	.	2r	2r
.	.	.	.	.	.	.	16b\	.	.	.	.	.	.	.	.	.	.	.	.	.	.	.
.	.	.	8e/	.	8e/J	.	16gg\	.	.	.	.	.	.	.	.	.	.	.	.	.	.	.
.	.	.	.	.	.	.	16b\JJ	.	.	.	.	.	.	.	.	.	.	.	.	.	.	.
!	!	!	!	!	!	!	!LO:LB:g=original	!	!	!	!	!	!	!	!	!	!	!	!	!	!	!
.	.	.	8d#X/	.	8d#X/L	.	16ff#\LL	.	.	.	.	.	.	.	.	.	.	.	.	.	.	.
.	.	.	.	.	.	.	16b\	.	.	.	.	.	.	.	.	.	.	.	.	.	.	.
.	.	.	8B/J	.	8B/J	.	16aa\	.	.	.	.	.	.	.	.	.	.	.	.	.	.	.
.	.	.	.	.	.	.	16b\JJ	.	.	.	.	.	.	.	.	.	.	.	.	.	.	.
=36	=36	=36	=36	=36	=36	=36	=36	=36	=36	=36	=36	=36	=36	=36	=36	=36	=36	=36	=36	=36	=36	=36
!	!	!	!	!	!	!	!	!	!LO:PB:g=original	!	!	!	!	!	!	!	!	!	!	!	!	!LO:LB:g=original
!	!	!	!	!	!	!	!	!	!	!	!	!LO:TX:b:t=3	!	!	!	!	!	!LO:TX:a:t=3	!	!	!LO:TX:a:t=3	!LO:TX:a:t=3
0r	.	.	4e/	.	4e/	.	32gg\LLL	.	0r	.	.	0r	.	.	0r	.	.	0r	.	.	0r	0r
.	.	.	.	.	.	.	32ff#\	.	.	.	.	.	.	.	.	.	.	.	.	.	.	.
.	.	.	.	.	.	.	32gg\	.	.	.	.	.	.	.	.	.	.	.	.	.	.	.
.	.	.	.	.	.	.	32aa\JJ	.	.	.	.	.	.	.	.	.	.	.	.	.	.	.
.	.	.	.	.	.	.	8bb\J	.	.	.	.	.	.	.	.	.	.	.	.	.	.	.
.	.	.	8a/L	.	8a/L	.	16r	.	.	.	.	.	.	.	.	.	.	.	.	.	.	.
.	.	.	.	.	.	.	16cc#\	.	.	.	.	.	.	.	.	.	.	.	.	.	.	.
.	.	.	8g/J	.	8g/J	.	16.cc#t\LL	.	.	.	.	.	.	.	.	.	.	.	.	.	.	.
!	!	!	!	!	!	!	!LO:N:vis=32	!	!	!	!	!	!	!	!	!	!	!	!	!	!	!
.	.	.	.	.	.	.	64b\LL	.	.	.	.	.	.	.	.	.	.	.	.	.	.	.
!	!	!	!	!	!	!	!LO:N:vis=32	!	!	!	!	!	!	!	!	!	!	!	!	!	!	!
.	.	.	.	.	.	.	64cc#\JJJJ	.	.	.	.	.	.	.	.	.	.	.	.	.	.	.
.	.	.	8f#/L	.	8f#/L	.	16dd\LL	.	.	.	.	.	.	.	.	.	.	.	.	.	.	.
.	.	.	.	.	.	.	16a\	.	.	.	.	.	.	.	.	.	.	.	.	.	.	.
.	.	.	8d/	.	8dn/	.	16ff#\	.	.	.	.	.	.	.	.	.	.	.	.	.	.	.
.	.	.	.	.	.	.	16a\JJ	.	.	.	.	.	.	.	.	.	.	.	.	.	.	.
.	.	.	8c#/	.	8c#/	.	16ee\LL	.	.	.	.	.	.	.	.	.	.	.	.	.	.	.
.	.	.	.	.	.	.	16a\	.	.	.	.	.	.	.	.	.	.	.	.	.	.	.
.	.	.	8A/J	.	8A/J	.	16gg\	.	.	.	.	.	.	.	.	.	.	.	.	.	.	.
.	.	.	.	.	.	.	16ee\JJ	.	.	.	.	.	.	.	.	.	.	.	.	.	.	.
=37	=37	=37	=37	=37	=37	=37	=37	=37	=37	=37	=37	=37	=37	=37	=37	=37	=37	=37	=37	=37	=37	=37
!	!	!	!LO:LB:g=original	!	!	!	!	!	!	!	!	!	!	!	!	!	!	!	!	!	!	!
*	*	*	*	*	*	*	*^	*	*	*	*	*	*	*	*	*	*	*	*	*	*	*
.	.	.	8d/L	.	8d/L	.	32ff#\LLL	4rcyy	.	.	.	.	.	.	.	.	.	.	.	.	.	.	.
.	.	.	.	.	.	.	32ee\	.	.	.	.	.	.	.	.	.	.	.	.	.	.	.	.
.	.	.	.	.	.	.	32ff#\	.	.	.	.	.	.	.	.	.	.	.	.	.	.	.	.
.	.	.	.	.	.	.	32gg\JJ	.	.	.	.	.	.	.	.	.	.	.	.	.	.	.	.
.	.	.	16f#/L	.	16f#/L	.	8aa\J	.	.	.	.	.	.	.	.	.	.	.	.	.	.	.	.
.	.	.	16e/JJ	.	16e/JJ	.	.	.	.	.	.	.	.	.	.	.	.	.	.	.	.	.	.
.	.	.	8d/	.	8d/	.	16raa	16rcyy	.	.	.	.	.	.	.	.	.	.	.	.	.	.	.
.	.	.	.	.	.	.	16aa/LL	16ff#\LL	.	.	.	.	.	.	.	.	.	.	.	.	.	.	.
.	.	.	8r	.	8r	.	16bb/	16gg\	.	.	.	.	.	.	.	.	.	.	.	.	.	.	.
.	.	.	.	.	.	.	16aa/JJ	16ee\JJ	.	.	.	.	.	.	.	.	.	.	.	.	.	.	.
!	!	!	!LO:TX:t=P:problem:mixed beam	!	!LO:TX:t=P:problem:mixed beam	!	!	!	!	!	!	!	!	!	!	!	!	!	!	!	!	!	!
.	.	.	8d/L	.	8d/L	.	4ddd/	4ff#\	.	.	.	.	.	.	.	.	.	.	.	.	.	.	.
.	.	.	8dd\	.	8dd\	.	.	.	.	.	.	.	.	.	.	.	.	.	.	.	.	.	.
.	.	.	8b\	.	8b\	.	4raayy	4dd\	.	.	.	.	.	.	.	.	.	.	.	.	.	.	.
.	.	.	8g#X\J	.	8g#X\J	.	.	.	.	.	.	.	.	.	.	.	.	.	.	.	.	.	.
=38	=38	=38	=38	=38	=38	=38	=38	=38	=38	=38	=38	=38	=38	=38	=38	=38	=38	=38	=38	=38	=38	=38	=38
2r	.	.	8a/L	.	8a/L	.	4raayy	8dd\L	.	1r	.	.	1r	.	.	1r	.	.	1r	.	.	1r	1r
.	.	.	8A/J	.	8A/J	.	.	8cc#\J	.	.	.	.	.	.	.	.	.	.	.	.	.	.	.
.	.	.	8r	.	8r	.	8aa/L	8ff#\L	.	.	.	.	.	.	.	.	.	.	.	.	.	.	.
!	!	!	!LO:TX:a:t=gis	!	!	!	!	!	!	!	!	!	!	!	!	!	!	!	!	!	!	!	!
.	.	.	8g#X/	.	8g#X/	.	8ff#/J	8dd\J	.	.	.	.	.	.	.	.	.	.	.	.	.	.	.
!	!	!	!	!	!LO:LB:g=original	!	!	!	!	!	!	!	!	!	!	!	!	!	!	!	!	!	!
4r	.	.	8a/L	.	8a/L	.	8ff#/L	8dd\L	.	.	.	.	.	.	.	.	.	.	.	.	.	.	.
.	.	.	8A/J	.	8A/J	.	8ee/J	8cc#\J	.	.	.	.	.	.	.	.	.	.	.	.	.	.	.
16A\LL|	.	.	4r	.	4r	.	4r	4rcyy	.	.	.	.	.	.	.	.	.	.	.	.	.	.	.
16G\|	.	.	.	.	.	.	.	.	.	.	.	.	.	.	.	.	.	.	.	.	.	.	.
16F#\|	.	.	.	.	.	.	.	.	.	.	.	.	.	.	.	.	.	.	.	.	.	.	.
16E\JJ|	.	.	.	.	.	.	.	.	.	.	.	.	.	.	.	.	.	.	.	.	.	.	.
*	*	*	*	*	*	*	*v	*v	*	*	*	*	*	*	*	*	*	*	*	*	*	*	*
=39	=39	=39	=39	=39	=39	=39	=39	=39	=39	=39	=39	=39	=39	=39	=39	=39	=39	=39	=39	=39	=39	=39
!	!	!	!	!	!	!	!LO:LB:g=original	!	!	!	!	!	!	!	!	!	!	!	!	!	!	!
!	!	!	!	!	!	!	!	!LO:DY:a:rj:t=f&colon;	!	!	!	!	!	!	!	!	!	!	!	!	!	!
4D/	.	.	4dd\	.	4dd\	.	8.ddd\L	f	4d\	Re-	.	4A\	Re-	.	4f#\	Re-	.	4dd\	Re-	.	4f#/	4dd\
.	.	.	.	.	.	.	16aa\Jk	.	.	.	.	.	.	.	.	.	.	.	.	.	.	.
4AA/	.	.	4cc#\	.	4cc#\	.	16aa\LL	.	4A\	-gi-	.	4A\	-gi-	.	4e\	-gi-	.	4cc#\	-gi-	.	4a/	4ee\
.	.	.	.	.	.	.	16gg\	.	.	.	.	.	.	.	.	.	.	.	.	.	.	.
.	.	.	.	.	.	.	16ff#\	.	.	.	.	.	.	.	.	.	.	.	.	.	.	.
.	.	.	.	.	.	.	16ee\JJ	.	.	.	.	.	.	.	.	.	.	.	.	.	.	.
4D/	.	.	4dd\	.	4dd\	.	16dd\LL	.	4D\	-na	.	4A\	-na	.	4f#\	-na	.	4dd\	-na	.	4f#/	4dd\
.	.	.	.	.	.	.	(32ee\L	.	.	.	.	.	.	.	.	.	.	.	.	.	.	.
.	.	.	.	.	.	.	32ff#\	.	.	.	.	.	.	.	.	.	.	.	.	.	.	.
.	.	.	.	.	.	.	32gg\	.	.	.	.	.	.	.	.	.	.	.	.	.	.	.
.	.	.	.	.	.	.	32aa\	.	.	.	.	.	.	.	.	.	.	.	.	.	.	.
.	.	.	.	.	.	.	32bb\)	.	.	.	.	.	.	.	.	.	.	.	.	.	.	.
.	.	.	.	.	.	.	32ccc#\JJJ	.	.	.	.	.	.	.	.	.	.	.	.	.	.	.
4r	.	.	8r	.	8r	.	8.ddd\L	.	4r	.	.	4r	.	.	4r	.	.	4r	.	.	4r	4r
.	.	.	8f#/	.	8f#/	.	.	.	.	.	.	.	.	.	.	.	.	.	.	.	.	.
.	.	.	.	.	.	.	16aa\Jk	.	.	.	.	.	.	.	.	.	.	.	.	.	.	.
=40	=40	=40	=40	=40	=40	=40	=40	=40	=40	=40	=40	=40	=40	=40	=40	=40	=40	=40	=40	=40	=40	=40
!	!	!	!	!	!	!	!	!	!	!	!	!LO:LB:g=original	!	!	!	!	!	!	!	!	!	!
!	!	!	!	!	!	!	!	!	!LO:TX:a:t=1	!	!	!	!	!	!LO:TX:a:t=1	!	!	!LO:TX:a:t=1	!	!	!	!
1r	.	.	8g/L|	.	8g/L|	.	24bb\LL	.	1r	.	.	1r	.	.	1r	.	.	1r	.	.	1r	1r
.	.	.	.	.	.	.	24dd\	.	.	.	.	.	.	.	.	.	.	.	.	.	.	.
.	.	.	.	.	.	.	24dd\JJ	.	.	.	.	.	.	.	.	.	.	.	.	.	.	.
.	.	.	8f#/|	.	8f#/|	.	24aa\LL	.	.	.	.	.	.	.	.	.	.	.	.	.	.	.
.	.	.	.	.	.	.	24dd\	.	.	.	.	.	.	.	.	.	.	.	.	.	.	.
.	.	.	.	.	.	.	24dd\JJ	.	.	.	.	.	.	.	.	.	.	.	.	.	.	.
.	.	.	8g/|	.	8g/|	.	24bb\LL	.	.	.	.	.	.	.	.	.	.	.	.	.	.	.
.	.	.	.	.	.	.	24dd\	.	.	.	.	.	.	.	.	.	.	.	.	.	.	.
.	.	.	.	.	.	.	24dd\JJ	.	.	.	.	.	.	.	.	.	.	.	.	.	.	.
.	.	.	8f#/J|	.	8f#/J|	.	24aa\LL	.	.	.	.	.	.	.	.	.	.	.	.	.	.	.
.	.	.	.	.	.	.	24dd\	.	.	.	.	.	.	.	.	.	.	.	.	.	.	.
.	.	.	.	.	.	.	24dd\JJ	.	.	.	.	.	.	.	.	.	.	.	.	.	.	.
.	.	.	8g/L	.	8g/L	.	16bb\LL	.	.	.	.	.	.	.	.	.	.	.	.	.	.	.
.	.	.	.	.	.	.	16ddd\	.	.	.	.	.	.	.	.	.	.	.	.	.	.	.
.	.	.	8f#/	.	8f#/	.	16aa\	.	.	.	.	.	.	.	.	.	.	.	.	.	.	.
.	.	.	.	.	.	.	16ddd\JJ	.	.	.	.	.	.	.	.	.	.	.	.	.	.	.
.	.	.	8e/	.	8e/	.	4gg\	.	.	.	.	.	.	.	.	.	.	.	.	.	.	.
.	.	.	8A/J	.	8A/J	.	.	.	.	.	.	.	.	.	.	.	.	.	.	.	.	.
=41	=41	=41	=41	=41	=41	=41	=41	=41	=41	=41	=41	=41	=41	=41	=41	=41	=41	=41	=41	=41	=41	=41
!	!	!	!	!	!LO:TX:t=P:problem:mixed beam	!	!	!	!	!	!	!	!	!	!	!	!	!	!	!	!	!
*	*	*	*	*	*	*	*	*	*	*ij	*	*	*ij	*	*	*ij	*	*	*ij	*	*	*
4d\	.	.	4f#/	.	8d/L	.	8ff#\L	.	4d\	Re-	.	4A\	Re-	.	4f#\	Re-	.	4dd\	Re-	.	4dd\	4ff#\
.	.	.	.	.	8dd\J	.	8dd\J	.	.	.	.	.	.	.	.	.	.	.	.	.	.	.
4A\	.	.	4e/	.	4cc#\	.	4cc#\	.	4A\	-gi-	.	4A\	-gi-	.	4e\	-gi-	.	4cc#\	-gi-	.	4a\	4ee\
!	!	!	!	!	!	!	!LO:TX:t=P:problem:mixed beam	!	!	!	!	!	!	!	!	!	!	!	!	!	!	!
4D\	.	.	4f#/	.	4dd\	.	32dd\LLL	.	4D\	-na	.	4A\	-na	.	4f#\	-na	.	4dd\	-na	.	4f#/	4dd\
*	*	*	*	*	*	*	*	*	*	*Xij	*	*	*Xij	*	*	*Xij	*	*	*Xij	*	*	*
.	.	.	.	.	.	.	32d/	.	.	.	.	.	.	.	.	.	.	.	.	.	.	.
.	.	.	.	.	.	.	(32e/	.	.	.	.	.	.	.	.	.	.	.	.	.	.	.
.	.	.	.	.	.	.	32f#/	.	.	.	.	.	.	.	.	.	.	.	.	.	.	.
.	.	.	.	.	.	.	32g/	.	.	.	.	.	.	.	.	.	.	.	.	.	.	.
.	.	.	.	.	.	.	32a/	.	.	.	.	.	.	.	.	.	.	.	.	.	.	.
.	.	.	.	.	.	.	32b/	.	.	.	.	.	.	.	.	.	.	.	.	.	.	.
.	.	.	.	.	.	.	32cc#/JJJ)	.	.	.	.	.	.	.	.	.	.	.	.	.	.	.
4r	.	.	8r	.	8r	.	8dd\L	.	4r	.	.	4r	.	.	4r	.	.	4r	.	.	4r	4r
.	.	.	8f#/	.	8f#/	.	8a\J	.	.	.	.	.	.	.	.	.	.	.	.	.	.	.
=42	=42	=42	=42	=42	=42	=42	=42	=42	=42	=42	=42	=42	=42	=42	=42	=42	=42	=42	=42	=42	=42	=42
!LO:LB:g=original	!	!	!LO:LB:g=original	!	!	!	!LO:LB:g=original	!	!	!	!	!	!	!	!	!	!	!	!	!	!	!
!LO:TX:a:t=1	!	!	!	!	!	!	!	!	!	!	!	!	!	!	!	!	!	!	!	!	!	!
1r	.	.	8g/L|	.	8g/L|	.	24b/LL	.	1r	.	.	1r	.	.	1r	.	.	1r	.	.	1r	1r
.	.	.	.	.	.	.	24d/	.	.	.	.	.	.	.	.	.	.	.	.	.	.	.
.	.	.	.	.	.	.	24d/JJ	.	.	.	.	.	.	.	.	.	.	.	.	.	.	.
.	.	.	8f#/|	.	8f#/|	.	24a/LL	.	.	.	.	.	.	.	.	.	.	.	.	.	.	.
.	.	.	.	.	.	.	24d/	.	.	.	.	.	.	.	.	.	.	.	.	.	.	.
.	.	.	.	.	.	.	24d/JJ	.	.	.	.	.	.	.	.	.	.	.	.	.	.	.
.	.	.	8g/|	.	8g/|	.	24b/LL	.	.	.	.	.	.	.	.	.	.	.	.	.	.	.
.	.	.	.	.	.	.	24d/	.	.	.	.	.	.	.	.	.	.	.	.	.	.	.
.	.	.	.	.	.	.	24d/JJ	.	.	.	.	.	.	.	.	.	.	.	.	.	.	.
.	.	.	8f#/J|	.	8f#/J|	.	24a/LL	.	.	.	.	.	.	.	.	.	.	.	.	.	.	.
.	.	.	.	.	.	.	24d/	.	.	.	.	.	.	.	.	.	.	.	.	.	.	.
.	.	.	.	.	.	.	24d/JJ	.	.	.	.	.	.	.	.	.	.	.	.	.	.	.
.	.	.	8g/L	.	8g/L	.	16b\LL	.	.	.	.	.	.	.	.	.	.	.	.	.	.	.
.	.	.	.	.	.	.	16dd\	.	.	.	.	.	.	.	.	.	.	.	.	.	.	.
.	.	.	8f#/	.	8f#/	.	16a\	.	.	.	.	.	.	.	.	.	.	.	.	.	.	.
.	.	.	.	.	.	.	16dd\JJ	.	.	.	.	.	.	.	.	.	.	.	.	.	.	.
.	.	.	8e/	.	8e/	.	4g/	.	.	.	.	.	.	.	.	.	.	.	.	.	.	.
.	.	.	8A/J	.	8A/J	.	.	.	.	.	.	.	.	.	.	.	.	.	.	.	.	.
=43	=43	=43	=43	=43	=43	=43	=43	=43	=43	=43	=43	=43	=43	=43	=43	=43	=43	=43	=43	=43	=43	=43
4r	.	.	8d/L	.	8d/L	.	4f#/	.	4r	.	.	4r	.	.	4r	.	.	4r	.	.	2r	2r
.	.	.	16f#/L	.	16f#/L	.	.	.	.	.	.	.	.	.	.	.	.	.	.	.	.	.
.	.	.	16a/JJ	.	16a/JJ	.	.	.	.	.	.	.	.	.	.	.	.	.	.	.	.	.
!	!	!	!LO:TX:t=P:problem:mixed beam	!	!	!	!	!	!	!	!	!	!	!	!	!	!	!	!	!	!	!
8r	.	.	8dd\L	.	8dd\L	.	8r	.	8r	.	.	8r	.	.	8r	.	.	8r	.	.	.	.
8D\	.	.	8f#/J	.	8a\J	.	8a/	.	8D\	Re-	.	8d\	Re-	.	8f#\	Re-	.	8a\	Re-	.	.	.
!	!	!	!	!	!	!	!	!	!	!	!	!	!	!	!LO:LB:g=original	!	!	!	!	!	!	!
*tremolo	*	*	*	*	*	*	*	*	*	*	*	*	*	*	*	*	*	*	*	*	*	*
8G\L	.	.	8g/L	.	8b\L	.	16b\LL	.	4G\	-gi-	.	4d\	-gi-	.	4g\	-gi-	.	4b\	-gi-	.	4d/	4dd\
.	.	.	.	.	.	.	16g\	.	.	.	.	.	.	.	.	.	.	.	.	.	.	.
8G\	.	.	8g/	.	8b\	.	16dd\	.	.	.	.	.	.	.	.	.	.	.	.	.	.	.
.	.	.	.	.	.	.	16b\JJ	.	.	.	.	.	.	.	.	.	.	.	.	.	.	.
8G\	.	.	8g/	.	8b\	.	16gg\LL	.	4G\	-na	.	4d\	-na	.	4g\	-na	.	4b\	-na	.	4r	4r
.	.	.	.	.	.	.	16dd\	.	.	.	.	.	.	.	.	.	.	.	.	.	.	.
8G\J	.	.	8g/J	.	8b\J	.	16bb\	.	.	.	.	.	.	.	.	.	.	.	.	.	.	.
.	.	.	.	.	.	.	16gg\JJ	.	.	.	.	.	.	.	.	.	.	.	.	.	.	.
=44	=44	=44	=44	=44	=44	=44	=44	=44	=44	=44	=44	=44	=44	=44	=44	=44	=44	=44	=44	=44	=44	=44
8G\L	.	.	8d/L	.	8b\L	.	16ddd\LL	.	8.G\	Mar-	.	8.d\	Mar-	.	8.g\	Mar-	.	8.b\	Mar-	.	8d/L	8dd\L
.	.	.	.	.	.	.	16gg\	.	.	.	.	.	.	.	.	.	.	.	.	.	.	.
8G\	.	.	8d/	.	8b\	.	16bb\	.	.	.	.	.	.	.	.	.	.	.	.	.	16d/L	16dd\L
!	!	!	!	!	!	!	!	!	!LO:SIC:l:s=ty-:v	!	!	!	!	!	!	!	!	!	!	!	!	!
.	.	.	.	.	.	.	16dd\JJ	.	16G\	-ti-	.	16d\	-ty-	.	16g\	-ty-	.	16b\	-ty-	.	16d/JJ	16dd\JJ
8G\	.	.	8d/	.	8b\	.	16gg\LL	.	8G\	-ru(m)	.	8d\	-rum	.	8g\	-rum	.	8b\	-rum	.	8d/L	8dd\L
.	.	.	.	.	.	.	16b\	.	.	.	.	.	.	.	.	.	.	.	.	.	.	.
!	!	!	!	!	!	!	!	!	!	!	!	!	!	!	!	!	!	!LO:LB:g=original	!	!	!	!
8G\J	.	.	8d/J	.	8b\J	.	16dd\	.	8G\	Re-	.	8d\	Re-	.	8g\	Re-	.	8b\	Re-	.	8d/J	8dd\J
.	.	.	.	.	.	.	16g\JJ	.	.	.	.	.	.	.	.	.	.	.	.	.	.	.
!	!	!	!	!	!	!	!	!	!LO:LB:g=original	!	!	!	!	!	!	!	!	!	!	!	!	!
8D\L	.	.	8f#/L	.	8a\L	.	16a/LL	.	8D\	-gi-	.	8d\	-gi-	.	8f#\	-gi-	.	8a\	-gi-	.	4d/	4dd\
.	.	.	.	.	.	.	16d/	.	.	.	.	.	.	.	.	.	.	.	.	.	.	.
8D\	.	.	8f#/	.	8a\	.	16cc#/	.	8D\	-na	.	8d\	-na	.	8f#\	-na	.	8a\	-na	.	.	.
.	.	.	.	.	.	.	16a/JJ	.	.	.	.	.	.	.	.	.	.	.	.	.	.	.
8D\	.	.	8f#/	.	8a\	.	16ff#\LL	.	8D\	Con-	.	8d\	Con-	.	8f#\	Con-	.	8a\	Con-	.	4r	4r
.	.	.	.	.	.	.	16dd\	.	.	.	.	.	.	.	.	.	.	.	.	.	.	.
8D\J	.	.	8f#/J	.	8a\J	.	16aa\	.	8D\	-feſ-	.	8d\	-fes-	.	8f#\	-feſso-	.	8a\	-fes-	.	.	.
.	.	.	.	.	.	.	16ff#\JJ	.	.	.	.	.	.	.	.	.	.	.	.	.	.	.
=45	=45	=45	=45	=45	=45	=45	=45	=45	=45	=45	=45	=45	=45	=45	=45	=45	=45	=45	=45	=45	=45	=45
8D\L	.	.	8f#/L	.	8a/L	.	16ddd\LL	.	4D\	-so-	.	4d\	-ſo-	.	4f#\	.	.	4b\	-so-	.	4.ff#\	4.aa\
.	.	.	.	.	.	.	16ff#\	.	.	.	.	.	.	.	.	.	.	.	.	.	.	.
8D\	.	.	8f#/	.	8a/	.	16aa\	.	.	.	.	.	.	.	.	.	.	.	.	.	.	.
.	.	.	.	.	.	.	16dd\JJ	.	.	.	.	.	.	.	.	.	.	.	.	.	.	.
8D\	.	.	8f#/	.	8a/	.	16ff#\LL	.	8D\	-rum	.	8d\	-rum	.	8f#\	-rum	.	8a\	-ru(m)	.	.	.
.	.	.	.	.	.	.	16a\	.	.	.	.	.	.	.	.	.	.	.	.	.	.	.
!	!	!	!	!	!	!	!	!	!	!	!	!LO:LB:g=original	!	!	!	!	!	!	!	!	!	!
8D\J	.	.	8f#/J	.	8a/J	.	16ee\	.	8D\	o-	.	8d\	O-	.	8f#\	o-	.	8a\	o-	.	8ff#\	8aa\
.	.	.	.	.	.	.	16g\JJ	.	.	.	.	.	.	.	.	.	.	.	.	.	.	.
!	!	!	!	!	!	!	!LO:LB:g=original	!	!	!	!	!	!	!	!	!	!	!	!	!	!	!
8AA/L	.	.	8e/L	.	8g/L	.	16g/LL	.	4AA/	-ra	.	4A\	-ra	.	4e\	-ra	.	4g\	-ra	.	4ee\	4gg\
.	.	.	.	.	.	.	16e/	.	.	.	.	.	.	.	.	.	.	.	.	.	.	.
8AA/	.	.	8e/	.	8g/	.	16b/	.	.	.	.	.	.	.	.	.	.	.	.	.	.	.
.	.	.	.	.	.	.	16g/JJ	.	.	.	.	.	.	.	.	.	.	.	.	.	.	.
8AA/	.	.	8e/	.	8g/	.	16ee\LL	.	4AA/	pro	.	4A\	pro	.	4g\	pro	.	4ee\	pro	.	4r	4r
.	.	.	.	.	.	.	16b\	.	.	.	.	.	.	.	.	.	.	.	.	.	.	.
8AA/J	.	.	8e/J	.	8g/J	.	16gg\	.	.	.	.	.	.	.	.	.	.	.	.	.	.	.
.	.	.	.	.	.	.	16ee\JJ	.	.	.	.	.	.	.	.	.	.	.	.	.	.	.
=46	=46	=46	=46	=46	=46	=46	=46	=46	=46	=46	=46	=46	=46	=46	=46	=46	=46	=46	=46	=46	=46	=46
!	!	!	!	!	!	!	!	!	!	!	!	!	!	!	!	!	!	!	!	!	!LO:LB:g=original	!
8AA/L	.	.	8e/L	.	8g/L	.	16bb\LL	.	4AA/	no-	.	4A\	no-	.	4g\	no-	.	4ee\	no-	.	4.ee\	4.gg\
.	.	.	.	.	.	.	16ee\	.	.	.	.	.	.	.	.	.	.	.	.	.	.	.
8AA/	.	.	8e/	.	8g/	.	16gg\	.	.	.	.	.	.	.	.	.	.	.	.	.	.	.
.	.	.	.	.	.	.	16b\JJ	.	.	.	.	.	.	.	.	.	.	.	.	.	.	.
8AA/	.	.	8e/	.	8g/	.	16ee\LL	.	8AA/	-bis	.	8A\	-bis	.	8g\	-bis	.	8ee\	-bis	.	.	.
.	.	.	.	.	.	.	16g\	.	.	.	.	.	.	.	.	.	.	.	.	.	.	.
8AA/J	.	.	8e/J	.	8g/J	.	16cc#\	.	8AA/	o-	.	8A\	o-	.	8g\	O-	.	8ee\	O-	.	8ee\	8gg\
*Xtremolo	*	*	*	*	*	*	*	*	*	*	*	*	*	*	*	*	*	*	*	*	*	*
.	.	.	.	.	.	.	16e\JJ	.	.	.	.	.	.	.	.	.	.	.	.	.	.	.
!	!	!	!	!	!	!	!LO:TX:t=P:problem:mixed beam	!	!	!	!	!	!	!	!	!	!	!	!	!	!	!
4D\	.	.	4d/	.	4f#/	.	16d/LL	.	4D/	-ra	.	4A\	-ra	.	4f#\	-ra	.	4dd\	-ra	.	4dd\	4ff#\
.	.	.	.	.	.	.	16ddd 16ff#\	.	.	.	.	.	.	.	.	.	.	.	.	.	.	.
.	.	.	.	.	.	.	16ddd 16ff#\	.	.	.	.	.	.	.	.	.	.	.	.	.	.	.
.	.	.	.	.	.	.	16dddJJ 16ff#\	.	.	.	.	.	.	.	.	.	.	.	.	.	.	.
!	!	!	!	!	!	!	!LO:TX:t=P:problem:mixed beam	!	!	!	!	!	!	!	!	!	!	!	!	!	!	!
8r	.	.	8r	.	8r	.	16a/LL	.	8r	.	.	8r	.	.	8r	.	.	8r	.	.	4r	8r
.	.	.	.	.	.	.	16eee 16gg\	.	.	.	.	.	.	.	.	.	.	.	.	.	.	.
*	*	*	*	*	*	*	*	*	*	*ij	*	*	*ij	*	*	*	*	*	*ij	*	*	*
8A\	.	.	8ee\	.	8gg\	.	16eee 16gg\	.	8A\	o-	.	8A\	o-	.	8g\	O-	.	8ee\	o-	.	.	8gg\
.	.	.	.	.	.	.	16eeeJJ 16gg\	.	.	.	.	.	.	.	.	.	.	.	.	.	.	.
=47	=47	=47	=47	=47	=47	=47	=47	=47	=47	=47	=47	=47	=47	=47	=47	=47	=47	=47	=47	=47	=47	=47
!	!	!	!	!	!	!	!	!	!	!	!	!	!	!	!LO:LB:g=original	!	!	!	!	!	!	!
*	*	*	*	*	*	*	*^	*	*	*	*	*	*	*	*	*	*	*	*	*	*	*
4d\	.	.	4dd\	.	4ff#\	.	24dd\LL	2..rcyy	.	4d\	-ra	.	4A\	-ra	.	4f#\	-ra	.	4dd\	-ra	.	4dd\	4ff#\
.	.	.	.	.	.	.	24ff#\	.	.	.	.	.	.	.	.	.	.	.	.	.	.	.	.
.	.	.	.	.	.	.	24aa\JJ	.	.	.	.	.	.	.	.	.	.	.	.	.	.	.	.
.	.	.	.	.	.	.	24ddd\LL	.	.	.	.	.	.	.	.	.	.	.	.	.	.	.	.
.	.	.	.	.	.	.	24aa\	.	.	.	.	.	.	.	.	.	.	.	.	.	.	.	.
.	.	.	.	.	.	.	24ff#\JJ	.	.	.	.	.	.	.	.	.	.	.	.	.	.	.	.
8r	.	.	8r	.	8r	.	24gg\LL	.	.	8r	.	.	8r	.	.	8r	.	.	8r	.	.	8r	8r
.	.	.	.	.	.	.	24aa\	.	.	.	.	.	.	.	.	.	.	.	.	.	.	.	.
.	.	.	.	.	.	.	24ccc#\JJ	.	.	.	.	.	.	.	.	.	.	.	.	.	.	.	.
*	*	*	*	*	*	*	*	*	*	*	*	*	*	*	*	*	*ij	*	*	*	*	*	*
8A\	.	.	8ee\	.	8gg\	.	24eee\LL	.	.	8A\	o-	.	8A\	o-	.	8g\	o-	.	8ee\	o-	.	8ee\	8gg\
.	.	.	.	.	.	.	24ccc#\	.	.	.	.	.	.	.	.	.	.	.	.	.	.	.	.
.	.	.	.	.	.	.	24gg\JJ	.	.	.	.	.	.	.	.	.	.	.	.	.	.	.	.
*	*	*	*	*	*	*	*	*	*	*	*	*	*	*	*	*	*	*	*	*	*	*	*2\right
*	*	*	*	*	*	*	*	*	*	*	*	*	*	*	*	*	*	*	*	*	*	*tremolo	*
*	*	*	*	*	*	*	*	*	*	*	*	*	*	*	*	*	*	*	*	*	*	*	*tremolo
!	!	!	!	!	!LO:LB:g=original	!	!	!	!	!	!	!	!	!	!	!	!	!	!	!	!	!	!
!LO:TX:t=P:problem:mixed beam	!	!	!LO:TX:t=P:problem:mixed beam	!	!	!	!	!	!	!	!	!	!	!	!	!	!	!	!	!	!	!	!
8d\L	.	.	8dd\L	.	8ff#\L	.	16ff#\LL	.	.	8d\	-ra	.	8A\	-ra	.	8f#\	-ra	.	8dd\	-ra	.	8dd\L	8ff#\L
*	*	*	*	*	*	*	*	*	*	*	*Xij	*	*	*Xij	*	*	*Xij	*	*	*Xij	*	*	*
.	.	.	.	.	.	.	16dd\	.	.	.	.	.	.	.	.	.	.	.	.	.	.	.	.
*	*	*	*	*	*	*	*	*	*	*	*	*	*	*	*	*	*	*	*	*	*	*	*Xtremolo
*	*	*	*	*	*	*	*	*	*	*	*	*	*	*	*	*	*	*	*	*	*	*Xtremolo	*
8D/J	.	.	8f#/	.	8dd\	.	16ff#\	.	.	8D\	pro	.	8B\	pro	.	8f#\	pro	.	8dd\	pro	.	8dd\	8ff#\
.	.	.	.	.	.	.	16aa\JJ	.	.	.	.	.	.	.	.	.	.	.	.	.	.	.	.
!	!	!	!	!	!	!	!LO:TX:t=P:problem:mixed beam	!	!	!	!	!	!	!	!	!	!	!	!	!	!	!	!
16D\LL	.	.	8g/	.	8dd\	.	8ddd\L	.	.	16D\LL	no-	.	4B\	no-	.	4f#\	no-	.	4dd\	no-	.	8dd\	8ff#\
16E\	.	.	.	.	.	.	.	.	.	16E\	.	.	.	.	.	.	.	.	.	.	.	.	.
16F#\	.	.	8f#/J	.	8dd\J	.	8dd/J	8f#\	.	16F#\	.	.	.	.	.	.	.	.	.	.	.	8dd\J	8ff#\J
16G\JJ	.	.	.	.	.	.	.	.	.	16G\JJ	.	.	.	.	.	.	.	.	.	.	.	.	.
=48	=48	=48	=48	=48	=48	=48	=48	=48	=48	=48	=48	=48	=48	=48	=48	=48	=48	=48	=48	=48	=48	=48	=48
!	!	!	!LO:LB:g=original	!	!	!	!	!	!	!LO:LB:g=original	!	!	!	!	!	!	!	!	!	!	!	!	!LO:PB:g=original
!LO:TX:t=P:problem:mixed beam	!	!	!LO:TX:t=P:problem:mixed beam	!	!	!	!	!	!	!	!	!	!	!	!	!	!	!	!	!	!	!	!
8A\L	.	.	8e/L	.	8cc#\L	.	8cc#/L	8e\L	.	4A\	-bis	.	4A\	-bis	.	4e\	-bis	.	4cc#\	-bis	.	4a/	4ee\
!	!	!	!LO:TX:a:t=c	!	!	!	!	!	!	!	!	!	!	!	!	!	!	!	!	!	!	!	!
8AA/	.	.	8cc#\	.	8aa 8cc# 8e\	.	8aa/	8cc# 8e\	.	.	.	.	.	.	.	.	.	.	.	.	.	.	.
!	!	!	!	!	!	!	!	!	!	!LO:TX:b:t= x	!	!	!	!	!	!	!	!	!	!	!	!	!
8AA/J	.	.	8cc#\J	.	8aaJ 8cc# 8e\	.	8aa/J	8cc#J 8e\	.	4r	.	.	4r	.	.	4r	.	.	4r	.	.	4r	4r
8r	.	.	8r	.	8r	.	8raa	8rcyy	.	.	.	.	.	.	.	.	.	.	.	.	.	.	.
*tremolo	*	*	*	*	*	*	*	*	*	*	*	*	*	*	*	*	*	*	*	*	*	*	*
!	!	!LO:DY:a	!	!LO:DY:a	!	!LO:DY:a	!LO:LB:g=original	!LO:LB:g=original	!	!	!	!	!LO:SIC:s=2c#:v	!	!LO:DY:b	!	!	!	!	!	!	!	!
8AA/L|	.	p	2c#/	p	2a/	p	2r	2rcyy	.	2A\	Re-	p	2d\	Re-	p	2a\	Re-	p	2r	.	.	2r	2r
8AA/	.	.	.	.	.	.	.	.	.	.	.	.	.	.	.	.	.	.	.	.	.	.	.
8AA/	.	.	.	.	.	.	.	.	.	.	.	.	.	.	.	.	.	.	.	.	.	.	.
8AA/J	.	.	.	.	.	.	.	.	.	.	.	.	.	.	.	.	.	.	.	.	.	.	.
*	*	*	*	*	*	*	*v	*v	*	*	*	*	*	*	*	*	*	*	*	*	*	*	*
=49	=49	=49	=49	=49	=49	=49	=49	=49	=49	=49	=49	=49	=49	=49	=49	=49	=49	=49	=49	=49	=49	=49
!	!	!	!	!	!	!	!LO:TX:a:t=3	!	!	!	!	!	!	!	!	!	!	!	!	!	!LO:TX:a:t=5	!LO:TX:a:t=5
8AA/L|	.	.	4d/	.	4g#X/	.	0r	.	4B\	-gi-	.	4d\	-gi-	.	4g#X\	-gi-	.	1r	.	.	00r	00r
8AA/	.	.	.	.	.	.	.	.	.	.	.	.	.	.	.	.	.	.	.	.	.	.
8AA/	.	.	4e/	.	4gn/	.	.	.	4c#\	-na	.	4e\	-na	.	4gn\	-na	.	.	.	.	.	.
8AA/J	.	.	.	.	.	.	.	.	.	.	.	.	.	.	.	.	.	.	.	.	.	.
*Xtremolo	*	*	*	*	*	*	*	*	*	*	*	*	*	*	*	*	*	*	*	*	*	*
8AA/L	.	.	4d/	.	4f#X/	.	.	.	4d\	Vir-	.	4d\	Vir-	.	4f#X\	Vir-	.	.	.	.	.	.
8AA/	.	.	.	.	.	.	.	.	.	.	.	.	.	.	.	.	.	.	.	.	.	.
8GG#X/	n	.	4d/	.	4fn/	.	.	.	4G#X\	-gi-	.	4d\	-gi-	.	4fn\	-gi-	.	.	.	.	.	.
8GG#/J	7	.	.	.	.	.	.	.	.	.	.	.	.	.	.	.	.	.	.	.	.	.
=50	=50	=50	=50	=50	=50	=50	=50	=50	=50	=50	=50	=50	=50	=50	=50	=50	=50	=50	=50	=50	=50	=50
!LO:PB:g=original	!	!	!	!	!	!	!	!	!	!	!	!LO:LB:g=original	!	!	!	!	!	!	!	!	!	!
4AA/	.	.	8d/L	.	4e/	.	.	.	4A\	-num	.	4c#\	-num	.	4e\	-num	.	8r	.	.	.	.
!	!	!	!	!	!	!	!	!	!	!	!	!	!	!	!	!	!	!	!	!LO:DY:a	!	!
*	*	*	*	*	*	*	*	*	*	*	*	*	*	*	*	*	*	*	*ij	*	*	*
.	.	.	8c#/J	.	.	.	.	.	.	.	.	.	.	.	.	.	.	8a\	o-	p	.	.
4r	.	.	4r	.	4r	.	.	.	4r	.	.	4r	.	.	4r	.	.	8a\	-ra	.	.	.
.	.	.	.	.	.	.	.	.	.	.	.	.	.	.	.	.	.	8a\	pro	.	.	.
*tremolo	*	*	*	*	*	*	*	*	*	*	*	*	*	*	*	*	*	*	*	*	*	*
8AA/L	.	.	2c#/	.	2a/	.	.	.	2A\	Re-	.	2c#\	Re-	.	2a\	Re-	.	8a\	no-	.	.	.
8AA/	.	.	.	.	.	.	.	.	.	.	.	.	.	.	.	.	.	8a\	-bis	.	.	.
8AA/	.	.	.	.	.	.	.	.	.	.	.	.	.	.	.	.	.	4r	.	.	.	.
8AA/J	.	.	.	.	.	.	.	.	.	.	.	.	.	.	.	.	.	.	.	.	.	.
=51	=51	=51	=51	=51	=51	=51	=51	=51	=51	=51	=51	=51	=51	=51	=51	=51	=51	=51	=51	=51	=51	=51
8AA/L	.	.	4d/	.	4g#X/	.	1r	.	4B\	-gi-	.	4d\	-gi-	.	4g#X\	-gi-	.	1r	.	.	.	.
*Xtremolo	*	*	*	*	*	*	*	*	*	*	*	*	*	*	*	*	*	*	*	*	*	*
8AA/	.	.	.	.	.	.	.	.	.	.	.	.	.	.	.	.	.	.	.	.	.	.
8AA/	.	.	4e/	.	4gn/	.	.	.	8c#\	-na	.	8e\	-na	.	8gn\	-na	.	.	.	.	.	.
8AA/J	.	.	.	.	.	.	.	.	8c#\	Sanc-	.	8e\	Sanc-	.	8g\	Sanc-	.	.	.	.	.	.
8AA/L	.	.	4d/	.	4f#X/	.	.	.	8d\	-to-	.	8d\	-to-	.	8f#X\	-to-	.	.	.	.	.	.
!	!	!	!	!	!	!	!	!	!	!	!	!	!	!	!LO:LB:g=original	!	!	!	!	!	!	!
8AA/	.	.	.	.	.	.	.	.	8d\	-ru(m)	.	8d\	-rum	.	8f#\	-rum	.	.	.	.	.	.
8GG#X/	n	.	4d/	.	4fn/	.	.	.	8G#X\	om-	.	8d\	om-	.	8fn\	om-	.	.	.	.	.	.
8GG#/J	7	.	.	.	.	.	.	.	8G#\	-ni-	.	8d\	-ni-	.	8f\	-ni-	.	.	.	.	.	.
=52	=52	=52	=52	=52	=52	=52	=52	=52	=52	=52	=52	=52	=52	=52	=52	=52	=52	=52	=52	=52	=52	=52
!	!	!	!	!	!	!	!	!	!LO:LB:g=original	!	!	!	!	!	!	!	!	!	!	!	!	!
!	!	!	!	!	!	!	!LO:TX:b:t=Vertatur\n Subbitto	!	!	!	!	!	!	!	!	!	!	!	!	!	!	!
4AA/	.	.	8d/L	.	4e/	.	2r	.	4A\	-um	.	4c#\	-um	.	4e\	-um	.	8r	.	.	.	.
.	.	.	8c#/J	.	.	.	.	.	.	.	.	.	.	.	.	.	.	8a\	o-	.	.	.
4r	.	.	4r	.	4r	.	.	.	4r	.	.	4r	.	.	4r	.	.	8a\	-ra	.	.	.
.	.	.	.	.	.	.	.	.	.	.	.	.	.	.	.	.	.	8a\	pro	.	.	.
!	!	!	!	!	!	!	!LO:PB:g=original	!	!	!	!	!	!	!	!	!	!	!	!	!	!	!
2r	.	.	8r	.	8r	.	4r	.	2r	.	.	2r	.	.	2r	.	.	8a\	no-	.	.	.
.	.	.	8a/L	.	8a/L	.	.	.	.	.	.	.	.	.	.	.	.	8a\	-bis	.	.	.
*	*	*	*	*	*	*	*	*	*	*	*	*	*	*	*	*	*	*	*Xij	*	*	*
.	.	.	8f#/	.	8f#/	.	8r	.	.	.	.	.	.	.	.	.	.	4r	.	.	.	.
.	.	.	8d/J	.	8d/J	.	8a/	.	.	.	.	.	.	.	.	.	.	.	.	.	.	.
=53	=53	=53	=53	=53	=53	=53	=53	=53	=53	=53	=53	=53	=53	=53	=53	=53	=53	=53	=53	=53	=53	=53
!LO:TX:a:t=1	!	!	!	!	!	!	!	!	!	!	!	!LO:TX:a:t=1	!	!	!	!	!	!LO:TX:a:t=1	!	!	!	!
1r	.	.	8g/L	.	8g/L	.	(32b/LLL	.	1r	.	.	1r	.	.	1r	.	.	1r	.	.	1r	1r
.	.	.	.	.	.	.	32a/	.	.	.	.	.	.	.	.	.	.	.	.	.	.	.
.	.	.	.	.	.	.	32g/	.	.	.	.	.	.	.	.	.	.	.	.	.	.	.
.	.	.	.	.	.	.	32f#/JJJ)	.	.	.	.	.	.	.	.	.	.	.	.	.	.	.
!	!	!	!	!	!	!	!LO:TX:t=P:problem:mixed beam	!	!	!	!	!	!	!	!	!	!	!	!	!	!	!
.	.	.	8e/	.	8e/	.	16g/LL	.	.	.	.	.	.	.	.	.	.	.	.	.	.	.
.	.	.	.	.	.	.	16gg\JJ	.	.	.	.	.	.	.	.	.	.	.	.	.	.	.
.	.	.	8c#/	.	8c#/	.	16r	.	.	.	.	.	.	.	.	.	.	.	.	.	.	.
.	.	.	.	.	.	.	16ee\	.	.	.	.	.	.	.	.	.	.	.	.	.	.	.
.	.	.	8e/J	.	8e/J	.	16r	.	.	.	.	.	.	.	.	.	.	.	.	.	.	.
.	.	.	.	.	.	.	16b/	.	.	.	.	.	.	.	.	.	.	.	.	.	.	.
.	.	.	8f#/L	.	8f#/L	.	32a/LLL	.	.	.	.	.	.	.	.	.	.	.	.	.	.	.
.	.	.	.	.	.	.	32g/	.	.	.	.	.	.	.	.	.	.	.	.	.	.	.
.	.	.	.	.	.	.	32f#/	.	.	.	.	.	.	.	.	.	.	.	.	.	.	.
.	.	.	.	.	.	.	32e/JJJ	.	.	.	.	.	.	.	.	.	.	.	.	.	.	.
!	!	!	!	!	!	!	!LO:TX:t=P:problem:mixed beam	!	!	!	!	!	!	!	!	!	!	!	!	!	!	!
.	.	.	8d/	.	8d/	.	16f#/LL	.	.	.	.	.	.	.	.	.	.	.	.	.	.	.
.	.	.	.	.	.	.	16ff#\JJ	.	.	.	.	.	.	.	.	.	.	.	.	.	.	.
.	.	.	8B/	.	8B/	.	16r	.	.	.	.	.	.	.	.	.	.	.	.	.	.	.
.	.	.	.	.	.	.	16dd\	.	.	.	.	.	.	.	.	.	.	.	.	.	.	.
.	.	.	8d/J	.	8d/J	.	16r	.	.	.	.	.	.	.	.	.	.	.	.	.	.	.
.	.	.	.	.	.	.	16f#/	.	.	.	.	.	.	.	.	.	.	.	.	.	.	.
=54	=54	=54	=54	=54	=54	=54	=54	=54	=54	=54	=54	=54	=54	=54	=54	=54	=54	=54	=54	=54	=54	=54
2r	.	.	8e/L	.	8e/L	.	32g/LLL	.	2r	.	.	2r	.	.	2r	.	.	2r	.	.	2r	2r
.	.	.	.	.	.	.	32f#/	.	.	.	.	.	.	.	.	.	.	.	.	.	.	.
.	.	.	.	.	.	.	32e/	.	.	.	.	.	.	.	.	.	.	.	.	.	.	.
.	.	.	.	.	.	.	32d#X/JJJ	.	.	.	.	.	.	.	.	.	.	.	.	.	.	.
!	!	!	!	!	!	!	!LO:TX:t=P:problem:mixed beam	!	!	!	!	!	!	!	!	!	!	!	!	!	!	!
.	.	.	8c#/	.	8c#/	.	16e/LL	.	.	.	.	.	.	.	.	.	.	.	.	.	.	.
.	.	.	.	.	.	.	16ee\JJ	.	.	.	.	.	.	.	.	.	.	.	.	.	.	.
.	.	.	8A/	.	8A/	.	16r	.	.	.	.	.	.	.	.	.	.	.	.	.	.	.
.	.	.	.	.	.	.	16cc#\	.	.	.	.	.	.	.	.	.	.	.	.	.	.	.
.	.	.	8c#/J	.	8c#/J	.	16r	.	.	.	.	.	.	.	.	.	.	.	.	.	.	.
.	.	.	.	.	.	.	16e/	.	.	.	.	.	.	.	.	.	.	.	.	.	.	.
4r	.	.	4d/	.	4d/	.	16f#/LL	.	4r	.	.	4r	.	.	4r	.	.	4r	.	.	4r	4r
.	.	.	.	.	.	.	16a/	.	.	.	.	.	.	.	.	.	.	.	.	.	.	.
.	.	.	.	.	.	.	16dd/	.	.	.	.	.	.	.	.	.	.	.	.	.	.	.
.	.	.	.	.	.	.	16f#/JJ	.	.	.	.	.	.	.	.	.	.	.	.	.	.	.
!	!	!	!LO:LB:g=original	!	!	!	!	!	!	!	!	!	!	!	!	!	!	!	!	!	!	!
!	!	!	!LO:TX:t=P:problem:mixed beam	!	!LO:TX:t=P:problem:mixed beam	!	!	!	!	!	!	!	!	!	!	!	!	!	!	!	!	!
8r	.	.	8A/L	.	8A/L	.	8e/	.	8r	.	.	8r	.	f	8r	.	.	8r	.	.	8r	8r
!	!	!LO:DY:a	!	!	!	!	!	!	!	!	!LO:DY:a	!	!	!	!	!	!	!	!	!LO:DY:a	!	!
8D\	.	f	8aa\J	f	8aa\J	f	8r	.	8D\	o-	f	8f#\	O-	.	8a\	O-	f	8dd\	o-	f	8ff#\	8aa\
=55	=55	=55	=55	=55	=55	=55	=55	=55	=55	=55	=55	=55	=55	=55	=55	=55	=55	=55	=55	=55	=55	=55
!	!	!	!	!	!	!	!LO:LB:g=original	!	!	!	!	!	!	!	!	!	!	!	!	!	!	!
!	!	!	!	!	!	!	!LO:TX:a:t=1	!	!	!	!	!	!	!	!	!	!	!	!	!	!	!
16G\LL	.	.	16bb\LL	.	16bb\LL	.	1r	.	16G\LL	.	.	4.g\	.	.	16b\LL	.	.	4dd\	-ra	.	4gg\	4bb\
16F#\	.	.	16aa\	.	16aa\	.	.	.	16F#\	.	.	.	.	.	16a\	.	.	.	.	.	.	.
16E\	.	.	16gg\	.	16gg\	.	.	.	16E\	.	.	.	.	.	16g\	.	.	.	.	.	.	.
16D\JJ	.	.	16ff#\JJ	.	16ff#\JJ	.	.	.	16D\JJ	.	.	.	.	.	16f#\JJ	.	.	.	.	.	.	.
*	*	*	*	*	*	*	*	*	*	*	*	*	*	*	*	*	*	*	*ij	*	*	*
!	!	!	!	!	!LO:LB:g=original	!	!	!	!	!	!	!	!	!	!	!	!	!	!	!	!	!
4C#/	7	.	16ee\LL	.	16ff#\LL	.	.	.	4C#/	.	.	.	.	.	16e\LL	.	.	4ee\	o-	.	4r	4r
.	.	.	16gg\	.	16gg\	.	.	.	.	.	.	.	.	.	16g\	.	.	.	.	.	.	.
.	.	.	16aa\	.	16aa\	.	.	.	.	.	.	24e\LL	.	.	16a\	.	.	.	.	.	.	.
.	.	.	.	.	.	.	.	.	.	.	.	24f#\	.	.	.	.	.	.	.	.	.	.
.	.	.	16bb\JJ	.	16bb\JJ	.	.	.	.	.	.	.	.	.	16b\JJ	.	.	.	.	.	.	.
.	.	.	.	.	.	.	.	.	.	.	.	24g\JJ	.	.	.	.	.	.	.	.	.	.
16F#\LL	.	.	16aa\LL	.	16aa\LL	.	.	.	16F#\LL	.	.	4.f#\	.	.	16a\LL	.	.	4cc#\	-ra	.	4ff#\	4aa\
*	*	*	*	*	*	*	*	*	*	*	*	*	*	*	*	*	*	*	*Xij	*	*	*
16E\	.	.	16gg\	.	16gg\	.	.	.	16E\	.	.	.	.	.	16g\	.	.	.	.	.	.	.
16D\	.	.	16ff#\	.	16ff#\	.	.	.	16D\	.	.	.	.	.	16f#\	.	.	.	.	.	.	.
16C#\JJ	.	.	16ee\JJ	.	16ee\JJ	.	.	.	16C#\JJ	.	.	.	.	.	16e\JJ	.	.	.	.	.	.	.
4BB/	7	.	16dd\LL	.	16dd\LL	.	.	.	4BB/	.	.	.	.	.	16d\LL	.	.	4dd\	pro	.	4r	4r
.	.	.	16ff#\	.	16ff#\	.	.	.	.	.	.	.	.	.	16f#\	.	.	.	.	.	.	.
!	!	!	!	!	!	!	!	!	!	!	!	!LO:LB:g=original	!	!	!	!	!	!	!	!	!	!
.	.	.	16gg\	.	16gg\	.	.	.	.	.	.	24d\LL	.	.	16g\	.	.	.	.	.	.	.
.	.	.	.	.	.	.	.	.	.	.	.	24e\	.	.	.	.	.	.	.	.	.	.
.	.	.	16aa\JJ	.	16aa\JJ	.	.	.	.	.	.	.	.	.	16a\JJ	.	.	.	.	.	.	.
.	.	.	.	.	.	.	.	.	.	.	.	24f#\JJ	.	.	.	.	.	.	.	.	.	.
=56	=56	=56	=56	=56	=56	=56	=56	=56	=56	=56	=56	=56	=56	=56	=56	=56	=56	=56	=56	=56	=56	=56
!	!	!	!	!	!	!	!	!	!	!	!	!	!	!	!LO:LB:g=original	!	!	!LO:LB:g=original	!	!	!	!
16E/LL	.	.	16gg\LL	.	16gg\LL	.	2r	.	16E\LL	.	.	4.e\	.	.	16g\LL	.	.	(4b\	no-	.	4ee\	4gg\
16D/	.	.	16ff#\	.	16ff#\	.	.	.	16D\	.	.	.	.	.	16f#\	.	.	.	.	.	.	.
16C#/	.	.	16ee\	.	16ee\	.	.	.	16C#\	.	.	.	.	.	16e\	.	.	.	.	.	.	.
16BB/JJ	.	.	16dd\JJ	.	16dd\JJ	.	.	.	16BB\JJ	.	.	.	.	.	16d\JJ	.	.	.	.	.	.	.
4AA/	7	.	16cc#\LL	.	16cc#\LL	.	.	.	4AA/	.	.	.	.	.	16c#\LL	.	.	4cc#\)	.	.	8r	8r
.	.	.	16ee\	.	16ee\	.	.	.	.	.	.	.	.	.	16e\	.	.	.	.	.	.	.
.	.	.	16ff#\	.	16ff#\	.	.	.	.	.	.	24c#\LL	.	.	16f#\	.	.	.	.	.	8a/	8ee\
.	.	.	.	.	.	.	.	.	.	.	.	24d\	.	.	.	.	.	.	.	.	.	.
.	.	.	16gg\JJ	.	16gg\JJ	.	.	.	.	.	.	.	.	.	16g\JJ	.	.	.	.	.	.	.
.	.	.	.	.	.	.	.	.	.	.	.	24e\JJ	.	.	.	.	.	.	.	.	.	.
!	!	!	!	!	!	!	!	!	!LO:LB:g=original	!	!	!	!	!	!	!	!	!	!	!	!	!
8D/	.	.	8ff#\	.	8ff#\	.	16r	.	8D\	-ra	.	8A\	-ra	.	8f#\	-ra	.	8dd\	-bis	.	4dd\	4ff#\
.	.	.	.	.	.	.	16d/LL	.	.	.	.	.	.	.	.	.	.	.	.	.	.	.
8r	.	.	8r	.	8r	.	16e/	.	8r	.	.	8r	.	.	8r	.	.	8r	.	.	.	.
.	.	.	.	.	.	.	16f#/JJ	.	.	.	.	.	.	.	.	.	.	.	.	.	.	.
!LO:LB:g=original	!	!	!	!	!	!	!	!	!	!	!	!	!	!	!	!	!	!	!	!	!	!
4r	.	.	4r	.	4r	.	16g/LL	.	4r	.	.	4r	.	.	4r	.	.	4r	.	.	4r	4r
.	.	.	.	.	.	.	16a/	.	.	.	.	.	.	.	.	.	.	.	.	.	.	.
.	.	.	.	.	.	.	16b/	.	.	.	.	.	.	.	.	.	.	.	.	.	.	.
.	.	.	.	.	.	.	16cc#/JJ	.	.	.	.	.	.	.	.	.	.	.	.	.	.	.
=57	=57	=57	=57	=57	=57	=57	=57	=57	=57	=57	=57	=57	=57	=57	=57	=57	=57	=57	=57	=57	=57	=57
4r	.	.	4r	.	4r	.	16dd\LL	.	2r	.	.	2r	.	.	2r	.	.	2r	.	.	2r	2r
.	.	.	.	.	.	.	16ee\	.	.	.	.	.	.	.	.	.	.	.	.	.	.	.
.	.	.	.	.	.	.	16ff#\	.	.	.	.	.	.	.	.	.	.	.	.	.	.	.
.	.	.	.	.	.	.	16gg\JJ	.	.	.	.	.	.	.	.	.	.	.	.	.	.	.
8r	.	.	8r	.	8r	.	16aa#X\LL	.	.	.	.	.	.	.	.	.	.	.	.	.	.	.
.	.	.	.	.	.	.	16bb\JJ	.	.	.	.	.	.	.	.	.	.	.	.	.	.	.
16r	.	.	16r	.	16r	.	16r	.	.	.	.	.	.	.	.	.	.	.	.	.	.	.
16G#X\|	.	.	16G#X/	.	16G#X/	.	16G#X/	.	.	.	.	.	.	.	.	.	.	.	.	.	.	.
4A\	.	.	4A/	.	4A/	.	4A/	.	4r	.	.	4r	.	.	4r	.	.	4r	.	.	4r	4r
4d\	.	.	16a/LL	.	16ff#\LL	.	4ddd\	.	4D\	pro	.	4A\	pro	.	4f#\	pro	.	4dd\	pro	.	4dd\	4ee\
.	.	.	16a/	.	16ff#\	.	.	.	.	.	.	.	.	.	.	.	.	.	.	.	.	.
.	.	.	16a/	.	16ff#\	.	.	.	.	.	.	.	.	.	.	.	.	.	.	.	.	.
.	.	.	16a/JJ	.	16ff#\JJ	.	.	.	.	.	.	.	.	.	.	.	.	.	.	.	.	.
=58	=58	=58	=58	=58	=58	=58	=58	=58	=58	=58	=58	=58	=58	=58	=58	=58	=58	=58	=58	=58	=58	=58
!	!	!	!	!	!	!	!	!	!	!	!	!	!	!	!	!	!	!	!	!	!LO:LB:g=original	!
4A\	4	.	16dd\LL	.	16ee\LL	.	4ee\	.	(4A\	no-	.	2A\	no-	.	2e\	no-	.	4dd\	no-	.	4dd\	2ee\
.	.	.	16dd\	.	16ee\	.	.	.	.	.	.	.	.	.	.	.	.	.	.	.	.	.
.	.	.	16dd\	.	16ee\	.	.	.	.	.	.	.	.	.	.	.	.	.	.	.	.	.
.	.	.	16dd\JJ	.	16ee\	.	.	.	.	.	.	.	.	.	.	.	.	.	.	.	.	.
4AA/	3	.	16cc#\LL	.	16ee\	.	4ccc#\	.	4AA/)	.	.	.	.	.	.	.	.	4cc#\	.	.	4a\	.
.	.	.	16cc#\	.	16ee\	.	.	.	.	.	.	.	.	.	.	.	.	.	.	.	.	.
.	.	.	16cc#\	.	16ee\	.	.	.	.	.	.	.	.	.	.	.	.	.	.	.	.	.
.	.	.	16cc#\JJ	.	16ee\JJ	.	.	.	.	.	.	.	.	.	.	.	.	.	.	.	.	.
!	!	!	!LO:LB:g=original	!	!	!	!LO:TX:t=P:problem:mixed beam	!	!	!	!	!	!	!	!	!	!	!	!	!	!	!
8D\	.	.	8dd\	.	8ff#\	.	16ddd\LL	.	4D\	-bis	.	4A\	-bis	.	4f#\	-bis	.	8dd\	-bis	.	4dd\	4ff#\
.	.	.	.	.	.	.	16d/	.	.	.	.	.	.	.	.	.	.	.	.	.	.	.
8r	.	.	8r	.	8r	.	16e/	.	.	.	.	.	.	.	.	.	.	8r	.	.	.	.
.	.	.	.	.	.	.	16f#/JJ	.	.	.	.	.	.	.	.	.	.	.	.	.	.	.
4r	.	.	4r	.	4r	.	16g/LL	.	4r	.	.	4r	.	.	4r	.	.	4r	.	.	4r	4r
.	.	.	.	.	.	.	16a/	.	.	.	.	.	.	.	.	.	.	.	.	.	.	.
.	.	.	.	.	.	.	16b/	.	.	.	.	.	.	.	.	.	.	.	.	.	.	.
.	.	.	.	.	.	.	16cc#/JJ	.	.	.	.	.	.	.	.	.	.	.	.	.	.	.
=59	=59	=59	=59	=59	=59	=59	=59	=59	=59	=59	=59	=59	=59	=59	=59	=59	=59	=59	=59	=59	=59	=59
4r	.	.	4r	.	4r	.	16dd\LL	.	2r	.	.	2r	.	.	2r	.	.	2r	.	.	2r	2r
.	.	.	.	.	.	.	16ee\	.	.	.	.	.	.	.	.	.	.	.	.	.	.	.
.	.	.	.	.	.	.	16ff#\	.	.	.	.	.	.	.	.	.	.	.	.	.	.	.
.	.	.	.	.	.	.	16gg\JJ	.	.	.	.	.	.	.	.	.	.	.	.	.	.	.
8r	.	.	8r	.	8r	.	16aa#X\LL	.	.	.	.	.	.	.	.	.	.	.	.	.	.	.
.	.	.	.	.	.	.	16bb\JJ	.	.	.	.	.	.	.	.	.	.	.	.	.	.	.
16r	.	.	16r	.	16r	.	16r	.	.	.	.	.	.	.	.	.	.	.	.	.	.	.
16G#X\|	.	.	16G#X/	.	16G#X/	.	16G#X/	.	.	.	.	.	.	.	.	.	.	.	.	.	.	.
!	!	!	!	!	!	!	!LO:LB:g=original	!	!	!	!	!	!	!	!	!	!	!	!	!	!	!
4A\|	.	.	4A/	.	4A/	.	4A/	.	4r	.	.	4r	.	.	4r	.	.	4r	.	.	4r	4r
*	*	*	*	*	*	*	*	*	*	*ij	*	*	*	*	*	*ij	*	*	*ij	*	*	*
4d\	3	.	16dd\LL	.	16ff#\LL	.	4ddd\	.	4E\	pro	.	4A\	o-	.	4f#\	pro	.	4dd\	pro	.	4dd\	4ff#\
.	.	.	16dd\	.	16ff#\	.	.	.	.	.	.	.	.	.	.	.	.	.	.	.	.	.
.	.	.	16dd\	.	16ff#\	.	.	.	.	.	.	.	.	.	.	.	.	.	.	.	.	.
.	.	.	16dd\JJ	.	16ff#\JJ	.	.	.	.	.	.	.	.	.	.	.	.	.	.	.	.	.
=60	=60	=60	=60	=60	=60	=60	=60	=60	=60	=60	=60	=60	=60	=60	=60	=60	=60	=60	=60	=60	=60	=60
4A\	4	.	16dd\LL	.	16ee\LL	.	4ee\	.	(4A\	no-	.	2A\	-ra	.	2e\	no-	.	(4dd\	no-	.	4dd\	4ee\
.	.	.	16dd\	.	16ee\	.	.	.	.	.	.	.	.	.	.	.	.	.	.	.	.	.
.	.	.	16dd\	.	16ee\	.	.	.	.	.	.	.	.	.	.	.	.	.	.	.	.	.
.	.	.	16dd\JJ	.	16ee\	.	.	.	.	.	.	.	.	.	.	.	.	.	.	.	.	.
4AA/	3	.	16cc#\LL	.	16ee\	.	4ccc#\	.	4AA/)	.	.	.	.	.	.	.	.	4cc#\)	.	.	4ee\	4aa\
.	.	.	16cc#\	.	16ee\	.	.	.	.	.	.	.	.	.	.	.	.	.	.	.	.	.
.	.	.	16cc#\	.	16ee\	.	.	.	.	.	.	.	.	.	.	.	.	.	.	.	.	.
.	.	.	16cc#\JJ	.	16ee\JJ	.	.	.	.	.	.	.	.	.	.	.	.	.	.	.	.	.
*	*	*	*	*	*Xtremolo	*	*	*	*	*	*	*	*	*	*	*	*	*	*	*	*	*
*	*	*	*Xtremolo	*	*	*	*	*	*	*	*	*	*	*	*	*	*	*	*	*	*	*
4D\	.	.	4dd\	.	4ff#\	.	4ddd\	.	4D\	-bis	.	4A\	pro	.	4f#\	-bis	.	4dd\	-bis	.	4ee\	4aa\
*	*	*	*	*	*	*	*	*	*	*Xij	*	*	*	*	*	*Xij	*	*	*Xij	*	*	*
4A\	.	.	4cc# 4e\	.	4ee 4a\	.	4ccc# 4a\	.	4A\	no-	.	4c#\	no-	.	4a\	no-	.	4ee\	no-	.	4a/	4ee\
=61	=61	=61	=61	=61	=61	=61	=61	=61	=61	=61	=61	=61	=61	=61	=61	=61	=61	=61	=61	=61	=61	=61
4d\	.	.	4dd 4f#\	.	4ff# 4a 4d/	.	4ddd 4dd\	.	4d\	-bis	.	4d\	-bis	.	4a\	-bis	.	4ff#\	-bis.	.	4dd\	4ff#\
4r	.	.	4r	.	4r	.	4r	.	4r	.	.	4r	.	.	4r	.	.	4r	.	.	4r	4r
!	!	!	!LO:TX:b:t=Verte Agnus	!	!	!	!	!	!	!	!	!	!	!	!	!	!	!	!	!	!	!
2r	.	.	2r	.	2r	.	2r	.	2r	.	.	2r	.	.	2r	.	.	2r	.	.	2r	2r
==	==	==	==	==	==;	==	==	==	==;	==	==	==;;	==	==	==;;	==	==	==;;	==	==	==	==
*-	*-	*-	*-	*-	*-	*-	*-	*-	*-	*-	*-	*-	*-	*-	*-	*-	*-	*-	*-	*-	*-	*-
!!!system-decoration:[g1][g2][g3]s10
!!!RDF**kern: > = above
!!!RDF**kern: < = below
!!!RDF**dynam: p = "po."
!!!RDF**dynam: f = "for."
!!!ENC: Marta Lawrence
!!!END: 2020-06-24
!!!ENC: Marta Chmielewska
!!!END: 2020-06-21
!!!RDF**kern: | = vertical stroke
